;FLAVOR:Marlin
;TIME:8232
;Filament used: 20.0754m
;Layer height: 0.32
;MINX:15.51
;MINY:36.3
;MINZ:0.32
;MAXX:212.102
;MAXY:198.7
;MAXZ:18.4
;Generated with Cura_SteamEngine 4.13.1
M140 S50
M105
M190 S50
M104 S200
M105
M109 S200
M82 ;absolute extrusion mode
; Ender 3 Custom Start G-code
G92 E0 ; Reset Extruder
G28 ; Home all axes
G1 Z2.0 F3000 ; Move Z Axis up little to prevent scratching of Heat Bed
G1 X0.1 Y20 Z0.3 F5000.0 ; Move to start position
G1 X0.1 Y200.0 Z0.3 F1500.0 E15 ; Draw the first line
G1 X0.4 Y200.0 Z0.3 F5000.0 ; Move to side a little
G1 X0.4 Y20 Z0.3 F1500.0 E30 ; Draw the second line
G92 E0 ; Reset Extruder
G1 Z2.0 F3000 ; Move Z Axis up little to prevent scratching of Heat Bed
G1 X5 Y20 Z0.3 F5000.0 ; Move over to prevent blob squish
G92 E0
G92 E0
G1 F2700 E-5
;LAYER_COUNT:42
;LAYER:0
M107
G0 F6000 X27.967 Y100.751 Z0.32
;TYPE:SKIRT
G1 F2700 E0
G1 F1200 X28.933 Y100.494 E0.13299
G1 X29.81 Y100.33 E0.25169
G1 X30.589 Y100.213 E0.35649
G1 X30.992 Y100.159 E0.41058
G1 X31.513 Y100.098 E0.48037
G1 X32.51 Y100.021 E0.61341
G1 X33.51 Y100.025 E0.74645
G1 X34.378 Y100.093 E0.86228
G1 X35.144 Y100.18 E0.96485
G1 X35.517 Y100.228 E1.01488
G1 X36.037 Y100.303 E1.08478
G1 X37.02 Y100.485 E1.21778
G1 X37.986 Y100.745 E1.35087
G1 X38.849 Y101.05 E1.47264
G1 X39.58 Y101.339 E1.57722
G1 X39.914 Y101.477 E1.6253
G1 X40.394 Y101.683 E1.69479
G1 X41.296 Y102.114 E1.82779
G1 X42.161 Y102.615 E1.96078
G1 X42.905 Y103.126 E2.08086
G1 X43.53 Y103.589 E2.18434
G1 X43.818 Y103.809 E2.23255
G1 X44.226 Y104.13 E2.30162
G1 X44.987 Y104.779 E2.43468
G1 X45.693 Y105.487 E2.5677
G1 X46.282 Y106.176 E2.6883
G1 X46.778 Y106.8 E2.79434
G1 X47.026 Y107.122 E2.84842
G1 X47.327 Y107.527 E2.91555
G1 X47.89 Y108.352 E3.04843
G1 X48.386 Y109.22 E3.18143
G1 X48.758 Y110.001 E3.29652
G1 X49.077 Y110.735 E3.403
G1 X49.222 Y111.083 E3.45315
G1 X49.408 Y111.549 E3.51991
G1 X49.742 Y112.492 E3.653
G1 X49.998 Y113.458 E3.78596
G1 X50.16 Y114.323 E3.90304
G1 X50.273 Y115.074 E4.00407
G1 X50.327 Y115.475 E4.0579
G1 X50.39 Y116.011 E4.12971
G1 X50.466 Y117.008 E4.26273
G1 X50.463 Y118.007 E4.39564
G1 X50.396 Y118.872 E4.51106
G1 X50.303 Y119.696 E4.62139
G1 X50.252 Y120.091 E4.67437
G1 X50.183 Y120.566 E4.73823
G1 X50 Y121.549 E4.87126
G1 X49.739 Y122.514 E5.00425
G1 X49.439 Y123.36 E5.12367
G1 X49.161 Y124.064 E5.22437
G1 X49.02 Y124.408 E5.27383
G1 X48.806 Y124.906 E5.34595
G1 X48.374 Y125.808 E5.479
G1 X47.873 Y126.673 E5.61199
G1 X47.369 Y127.407 E5.73045
G1 X46.885 Y128.061 E5.83869
G1 X46.645 Y128.374 E5.89116
G1 X46.344 Y128.755 E5.95576
G1 X45.694 Y129.514 E6.08871
G1 X44.984 Y130.219 E6.22182
G1 X44.321 Y130.786 E6.33789
G1 X43.708 Y131.274 E6.44213
G1 X43.381 Y131.525 E6.49697
G1 X42.96 Y131.838 E6.56676
G1 X42.134 Y132.402 E6.69983
G1 X41.266 Y132.898 E6.83283
G1 X40.502 Y133.263 E6.94548
G1 X39.794 Y133.572 E7.04825
G1 X39.432 Y133.724 E7.10049
G1 X38.949 Y133.917 E7.16969
G1 X38.007 Y134.25 E7.30261
G1 X37.041 Y134.507 E7.4356
G1 X36.168 Y134.67 E7.55375
G1 X35.389 Y134.787 E7.65855
G1 X34.986 Y134.841 E7.71264
G1 X34.465 Y134.902 E7.78243
G1 X33.468 Y134.979 E7.91547
G1 X32.468 Y134.975 E8.04851
G1 X31.6 Y134.907 E8.16434
G1 X30.834 Y134.82 E8.26691
G1 X30.461 Y134.772 E8.31694
G1 X29.941 Y134.697 E8.38684
G1 X28.958 Y134.515 E8.51984
G1 X27.992 Y134.255 E8.65293
G1 X27.129 Y133.95 E8.7747
G1 X26.398 Y133.661 E8.87928
G1 X26.053 Y133.518 E8.92897
G1 X25.572 Y133.311 E8.99863
G1 X24.67 Y132.879 E9.13169
G1 X23.805 Y132.377 E9.26474
G1 X23.076 Y131.876 E9.38243
G1 X22.46 Y131.42 E9.48439
G1 X22.167 Y131.196 E9.53346
G1 X21.754 Y130.871 E9.60338
G1 X20.994 Y130.222 E9.73634
G1 X20.288 Y129.514 E9.86936
G1 X19.699 Y128.826 E9.98985
G1 X19.199 Y128.197 E10.09675
G1 X18.961 Y127.888 E10.14864
G1 X18.654 Y127.476 E10.217
G1 X18.089 Y126.651 E10.35003
G1 X17.592 Y125.783 E10.4831
G1 X17.21 Y124.983 E10.60104
G1 X16.908 Y124.287 E10.70198
G1 X16.764 Y123.941 E10.75184
G1 X16.569 Y123.452 E10.82188
G1 X16.236 Y122.509 E10.95493
G1 X15.98 Y121.543 E11.08788
G1 X15.819 Y120.679 E11.20481
G1 X15.702 Y119.9 E11.30961
G1 X15.647 Y119.491 E11.36451
G1 X15.586 Y118.968 E11.43456
G1 X15.51 Y117.971 E11.56759
G1 X15.514 Y116.971 E11.70063
G1 X15.582 Y116.106 E11.81606
G1 X15.669 Y115.342 E11.91836
G1 X15.718 Y114.968 E11.96855
G1 X15.793 Y114.449 E12.03831
G1 X15.975 Y113.466 E12.17131
G1 X16.235 Y112.501 E12.30428
G1 X16.537 Y111.647 E12.42479
G1 X16.826 Y110.915 E12.52949
G1 X16.971 Y110.564 E12.58001
G1 X17.178 Y110.083 E12.64968
G1 X17.61 Y109.181 E12.78274
G1 X18.112 Y108.316 E12.91579
G1 X18.613 Y107.587 E13.03347
G1 X19.069 Y106.971 E13.13544
G1 X19.293 Y106.678 E13.18451
G1 X19.618 Y106.265 E13.25442
G1 X20.267 Y105.505 E13.38738
G1 X20.975 Y104.799 E13.5204
G1 X21.663 Y104.21 E13.6409
G1 X22.292 Y103.71 E13.7478
G1 X22.605 Y103.469 E13.80035
G1 X23.016 Y103.163 E13.86852
G1 X23.841 Y102.598 E14.00155
G1 X24.709 Y102.101 E14.13462
G1 X25.503 Y101.723 E14.25162
G1 X26.194 Y101.423 E14.35184
G1 X26.53 Y101.283 E14.40027
G1 X27.025 Y101.085 E14.47119
G1 X27.967 Y100.751 E14.60416
G0 F6000 X28.3 Y101.695
G1 F1200 X29.228 Y101.453 E14.73175
G1 X29.959 Y101.319 E14.83063
G1 X30.738 Y101.202 E14.93543
G1 X31.109 Y101.152 E14.98523
G1 X31.63 Y101.091 E15.05502
G1 X32.586 Y101.019 E15.18257
G1 X33.545 Y101.028 E15.31016
G1 X34.265 Y101.086 E15.40626
G1 X35.031 Y101.173 E15.50882
G1 X35.375 Y101.218 E15.55498
G1 X35.895 Y101.293 E15.62487
G1 X36.837 Y101.469 E15.75237
G1 X37.762 Y101.723 E15.87998
G1 X38.481 Y101.98 E15.98157
G1 X39.212 Y102.269 E16.08614
G1 X39.519 Y102.396 E16.13035
G1 X39.999 Y102.602 E16.19984
G1 X40.864 Y103.017 E16.32748
G1 X41.691 Y103.502 E16.45503
G1 X42.309 Y103.929 E16.55496
G1 X42.934 Y104.392 E16.65844
G1 X43.2 Y104.595 E16.70296
G1 X43.608 Y104.916 E16.77203
G1 X44.336 Y105.54 E16.89959
G1 X45.01 Y106.222 E17.02716
G1 X45.499 Y106.798 E17.12768
G1 X45.995 Y107.422 E17.23373
G1 X46.223 Y107.718 E17.28343
G1 X46.524 Y108.123 E17.35057
G1 X47.063 Y108.916 E17.47813
G1 X47.535 Y109.751 E17.60574
G1 X47.841 Y110.399 E17.70108
G1 X48.16 Y111.133 E17.80755
G1 X48.294 Y111.454 E17.85383
G1 X48.48 Y111.92 E17.92059
G1 X48.798 Y112.825 E18.0482
G1 X49.039 Y113.753 E18.17576
G1 X49.171 Y114.472 E18.27302
G1 X49.284 Y115.223 E18.37405
G1 X49.333 Y115.592 E18.42358
G1 X49.396 Y116.128 E18.49538
G1 X49.469 Y117.084 E18.62293
G1 X49.461 Y118.043 E18.75052
G1 X49.402 Y118.76 E18.84624
G1 X49.309 Y119.584 E18.95656
G1 X49.263 Y119.947 E19.00524
G1 X49.194 Y120.422 E19.0691
G1 X49.016 Y121.365 E19.19677
G1 X48.761 Y122.289 E19.32429
G1 X48.509 Y122.993 E19.42377
G1 X48.231 Y123.697 E19.52447
G1 X48.101 Y124.013 E19.56993
G1 X47.887 Y124.511 E19.64204
G1 X47.472 Y125.376 E19.76968
G1 X46.986 Y126.203 E19.8973
G1 X46.565 Y126.812 E19.9958
G1 X46.081 Y127.466 E20.10404
G1 X45.861 Y127.754 E20.15226
G1 X45.56 Y128.135 E20.21685
G1 X44.934 Y128.862 E20.34449
G1 X44.251 Y129.534 E20.47197
G1 X43.698 Y130.003 E20.56843
G1 X43.085 Y130.491 E20.67267
G1 X42.784 Y130.723 E20.72323
G1 X42.363 Y131.036 E20.79303
G1 X41.571 Y131.575 E20.92048
G1 X40.736 Y132.047 E21.04809
G1 X40.102 Y132.347 E21.1414
G1 X39.394 Y132.656 E21.24418
G1 X39.061 Y132.795 E21.29218
G1 X38.578 Y132.988 E21.36138
G1 X37.674 Y133.306 E21.48888
G1 X36.746 Y133.548 E21.61647
G1 X36.019 Y133.681 E21.71479
G1 X35.24 Y133.798 E21.81959
G1 X34.869 Y133.848 E21.8694
G1 X34.348 Y133.909 E21.93918
G1 X33.392 Y133.981 E22.06673
G1 X32.433 Y133.972 E22.19432
G1 X31.713 Y133.914 E22.29042
G1 X30.947 Y133.827 E22.39299
G1 X30.603 Y133.782 E22.43914
G1 X30.083 Y133.707 E22.50904
G1 X29.141 Y133.531 E22.63653
G1 X28.216 Y133.277 E22.76415
G1 X27.497 Y133.02 E22.86573
G1 X26.766 Y132.731 E22.97031
G1 X26.448 Y132.599 E23.01612
G1 X25.967 Y132.392 E23.08578
G1 X25.103 Y131.977 E23.2133
G1 X24.276 Y131.491 E23.34092
G1 X23.671 Y131.072 E23.43883
G1 X23.055 Y130.616 E23.54079
G1 X22.785 Y130.41 E23.58597
G1 X22.372 Y130.085 E23.65589
G1 X21.644 Y129.461 E23.78346
G1 X20.97 Y128.779 E23.91102
G1 X20.482 Y128.204 E24.01136
G1 X19.982 Y127.575 E24.11826
G1 X19.763 Y127.29 E24.16608
G1 X19.456 Y126.878 E24.23443
G1 X18.915 Y126.086 E24.36204
G1 X18.443 Y125.252 E24.48953
G1 X18.127 Y124.585 E24.58772
G1 X17.825 Y123.889 E24.68866
G1 X17.693 Y123.571 E24.73447
G1 X17.498 Y123.082 E24.80451
G1 X17.18 Y122.177 E24.93212
G1 X16.939 Y121.249 E25.05968
G1 X16.808 Y120.53 E25.15691
G1 X16.691 Y119.751 E25.26171
G1 X16.64 Y119.375 E25.31219
G1 X16.579 Y118.852 E25.38225
G1 X16.508 Y117.896 E25.50978
G1 X16.517 Y116.937 E25.63738
G1 X16.576 Y116.219 E25.73322
G1 X16.663 Y115.455 E25.83552
G1 X16.707 Y115.111 E25.88166
G1 X16.782 Y114.592 E25.95142
G1 X16.959 Y113.65 E26.07894
G1 X17.213 Y112.725 E26.20656
G1 X17.467 Y112.014 E26.30701
G1 X17.756 Y111.282 E26.41171
G1 X17.89 Y110.959 E26.45823
G1 X18.097 Y110.478 E26.5279
G1 X18.512 Y109.614 E26.65542
G1 X18.998 Y108.787 E26.78303
G1 X19.417 Y108.182 E26.88094
G1 X19.873 Y107.566 E26.9829
G1 X20.079 Y107.296 E27.02809
G1 X20.404 Y106.883 E27.09801
G1 X21.028 Y106.155 E27.22557
G1 X21.71 Y105.481 E27.35314
G1 X22.285 Y104.993 E27.45347
G1 X22.914 Y104.493 E27.56037
G1 X23.202 Y104.271 E27.60875
G1 X23.613 Y103.965 E27.67692
G1 X24.406 Y103.425 E27.80456
G1 X25.24 Y102.952 E27.93212
G1 X25.901 Y102.64 E28.02936
G1 X26.592 Y102.34 E28.12958
G1 X26.901 Y102.212 E28.17408
G1 X27.396 Y102.014 E28.24501
G1 X28.3 Y101.695 E28.37254
G0 F6000 X28.632 Y102.639
G1 F1200 X29.52 Y102.413 E28.49445
G1 X30.107 Y102.307 E28.57381
G1 X30.886 Y102.19 E28.67861
G1 X31.225 Y102.145 E28.7241
G1 X31.746 Y102.084 E28.79389
G1 X32.66 Y102.017 E28.91582
G1 X33.576 Y102.031 E29.0377
G1 X34.152 Y102.08 E29.11461
G1 X34.918 Y102.167 E29.21717
G1 X35.232 Y102.208 E29.2593
G1 X35.752 Y102.283 E29.3292
G1 X36.652 Y102.453 E29.45105
G1 X37.534 Y102.701 E29.57294
G1 X38.113 Y102.91 E29.65484
G1 X38.844 Y103.199 E29.75941
G1 X39.125 Y103.315 E29.79986
G1 X39.605 Y103.521 E29.86935
G1 X40.43 Y103.919 E29.99121
G1 X41.218 Y104.387 E30.11315
G1 X41.714 Y104.733 E30.1936
G1 X42.339 Y105.196 E30.29708
G1 X42.581 Y105.381 E30.33761
G1 X42.989 Y105.702 E30.40668
G1 X43.684 Y106.299 E30.52857
G1 X44.324 Y106.955 E30.6505
G1 X44.717 Y107.42 E30.7315
G1 X45.213 Y108.044 E30.83754
G1 X45.42 Y108.315 E30.88291
G1 X45.721 Y108.72 E30.95005
G1 X46.235 Y109.478 E31.07189
G1 X46.681 Y110.279 E31.19386
G1 X46.924 Y110.798 E31.2701
G1 X47.243 Y111.532 E31.37658
G1 X47.365 Y111.825 E31.4188
G1 X47.551 Y112.291 E31.48556
G1 X47.853 Y113.156 E31.60745
G1 X48.079 Y114.044 E31.72935
G1 X48.182 Y114.621 E31.80733
G1 X48.295 Y115.372 E31.90837
G1 X48.34 Y115.708 E31.95347
G1 X48.403 Y116.244 E32.02527
G1 X48.47 Y117.158 E32.1472
G1 X48.458 Y118.074 E32.26907
G1 X48.409 Y118.648 E32.34572
G1 X48.316 Y119.472 E32.45604
G1 X48.273 Y119.803 E32.50044
G1 X48.204 Y120.278 E32.5643
G1 X48.033 Y121.179 E32.68631
G1 X47.784 Y122.06 E32.80811
G1 X47.579 Y122.626 E32.8882
G1 X47.301 Y123.33 E32.9889
G1 X47.182 Y123.619 E33.03048
G1 X46.968 Y124.117 E33.10259
G1 X46.57 Y124.942 E33.22445
G1 X46.101 Y125.729 E33.34634
G1 X45.761 Y126.217 E33.42547
G1 X45.277 Y126.871 E33.53371
G1 X45.076 Y127.134 E33.57775
G1 X44.775 Y127.515 E33.64235
G1 X44.176 Y128.209 E33.76431
G1 X43.519 Y128.847 E33.88615
G1 X43.076 Y129.221 E33.96328
G1 X42.463 Y129.709 E34.06752
G1 X42.188 Y129.92 E34.11364
G1 X41.767 Y130.233 E34.18343
G1 X41.008 Y130.747 E34.30539
G1 X40.208 Y131.193 E34.42724
G1 X39.702 Y131.43 E34.50158
G1 X38.994 Y131.739 E34.60435
G1 X38.69 Y131.866 E34.64818
G1 X38.207 Y132.059 E34.71738
G1 X37.342 Y132.362 E34.83932
G1 X36.454 Y132.588 E34.96122
G1 X35.871 Y132.693 E35.04003
G1 X35.092 Y132.81 E35.14483
G1 X34.753 Y132.855 E35.19033
G1 X34.232 Y132.916 E35.26012
G1 X33.318 Y132.983 E35.38204
G1 X32.402 Y132.969 E35.50392
G1 X31.826 Y132.92 E35.58083
G1 X31.06 Y132.833 E35.6834
G1 X30.746 Y132.792 E35.72552
G1 X30.226 Y132.717 E35.79542
G1 X29.326 Y132.547 E35.91728
G1 X28.444 Y132.299 E36.03917
G1 X27.865 Y132.09 E36.12106
G1 X27.134 Y131.801 E36.22564
G1 X26.843 Y131.681 E36.26752
G1 X26.362 Y131.474 E36.33718
G1 X25.537 Y131.075 E36.45911
G1 X24.75 Y130.606 E36.58099
G1 X24.266 Y130.268 E36.65953
G1 X23.65 Y129.812 E36.76149
G1 X23.404 Y129.624 E36.80268
G1 X22.991 Y129.299 E36.8726
G1 X22.296 Y128.702 E36.9945
G1 X21.656 Y128.046 E37.11642
G1 X21.265 Y127.582 E37.19715
G1 X20.765 Y126.953 E37.30405
G1 X20.564 Y126.693 E37.34777
G1 X20.257 Y126.281 E37.41613
G1 X19.743 Y125.523 E37.53797
G1 X19.296 Y124.723 E37.65989
G1 X19.045 Y124.187 E37.73863
G1 X18.743 Y123.491 E37.83957
G1 X18.622 Y123.2 E37.8815
G1 X18.427 Y122.711 E37.95154
G1 X18.125 Y121.846 E38.07343
G1 X17.9 Y120.958 E38.1953
G1 X17.796 Y120.382 E38.27317
G1 X17.679 Y119.603 E38.37798
G1 X17.634 Y119.259 E38.42413
G1 X17.573 Y118.736 E38.49418
G1 X17.506 Y117.823 E38.61598
G1 X17.52 Y116.906 E38.73799
G1 X17.569 Y116.332 E38.81463
G1 X17.656 Y115.568 E38.91693
G1 X17.697 Y115.254 E38.95906
G1 X17.772 Y114.735 E39.02883
G1 X17.942 Y113.835 E39.15068
G1 X18.191 Y112.953 E39.27261
G1 X18.398 Y112.381 E39.35354
G1 X18.687 Y111.649 E39.45824
G1 X18.808 Y111.354 E39.50066
G1 X19.015 Y110.873 E39.57032
G1 X19.414 Y110.048 E39.69225
G1 X19.883 Y109.261 E39.81413
G1 X20.221 Y108.777 E39.89267
G1 X20.677 Y108.161 E39.99463
G1 X20.865 Y107.915 E40.03582
G1 X21.19 Y107.502 E40.10574
G1 X21.787 Y106.807 E40.22764
G1 X22.443 Y106.167 E40.34956
G1 X22.907 Y105.776 E40.43029
G1 X23.536 Y105.276 E40.53719
G1 X23.8 Y105.073 E40.5815
G1 X24.211 Y104.767 E40.64967
G1 X24.969 Y104.252 E40.77159
G1 X25.769 Y103.806 E40.89344
G1 X26.299 Y103.558 E40.97129
G1 X26.99 Y103.258 E41.07151
G1 X27.272 Y103.14 E41.11218
G1 X27.767 Y102.942 E41.18311
G1 X28.632 Y102.639 E41.30504
G1 F2700 E36.30504
;MESH:SmallCylinder.stl
G0 F6000 X31.344 Y112.097
G0 X31.894 Y113.421
G0 X33.984 Y113.785
G0 X34.912 Y114.17
G0 X35.708 Y114.78
G0 X36.319 Y115.577
G0 X36.704 Y116.505
G0 X36.835 Y117.5
G0 X36.704 Y118.495
G0 X36.319 Y119.423
G0 X35.825 Y120.068
G0 X34.898 Y120.901
G1 F2700 E41.30504
G0 F6000 X34.766 Y120.578
;TYPE:WALL-OUTER
G1 F1200 X35.502 Y120.014 E41.42841
G1 X36.067 Y119.277 E41.55195
G1 X36.422 Y118.42 E41.67537
G1 X36.543 Y117.5 E41.79882
G1 X36.422 Y116.58 E41.92227
G1 X36.067 Y115.723 E42.04568
G1 X35.502 Y114.986 E42.16923
G1 X34.766 Y114.422 E42.29259
G1 X33.909 Y114.067 E42.416
G1 X32.989 Y113.946 E42.53945
G1 X32.068 Y114.067 E42.66303
G1 X31.212 Y114.422 E42.78632
G1 X30.476 Y114.986 E42.90968
G1 X29.91 Y115.723 E43.03331
G1 X29.556 Y116.581 E43.1568
G1 X29.435 Y117.5 E43.28012
G1 X29.556 Y118.419 E43.40343
G1 X29.91 Y119.277 E43.52692
G1 X30.476 Y120.014 E43.65055
G1 X31.212 Y120.578 E43.77391
G1 X32.068 Y120.933 E43.8972
G1 X32.989 Y121.054 E44.02078
G1 X33.909 Y120.933 E44.14423
G1 X34.766 Y120.578 E44.26764
G0 F6000 X35.236 Y121.394
G1 F1200 X34.154 Y121.842 E44.42344
G1 X32.989 Y121.995 E44.57977
G1 X31.824 Y121.842 E44.73609
G1 X30.741 Y121.393 E44.89206
G1 X29.81 Y120.679 E45.04816
G1 X29.096 Y119.748 E45.20425
G1 X28.647 Y118.665 E45.36022
G1 X28.494 Y117.5 E45.51655
G1 X28.647 Y116.335 E45.67287
G1 X29.096 Y115.252 E45.82884
G1 X29.81 Y114.321 E45.98494
G1 X30.741 Y113.607 E46.14103
G1 X31.824 Y113.158 E46.297
G1 X32.989 Y113.005 E46.45333
G1 X34.154 Y113.158 E46.60965
G1 X35.236 Y113.606 E46.76545
G1 X36.167 Y114.321 E46.92162
G1 X36.882 Y115.252 E47.0778
G1 X37.33 Y116.335 E47.23372
G1 X37.484 Y117.5 E47.39006
G1 X37.33 Y118.665 E47.5464
G1 X36.882 Y119.748 E47.70233
G1 X36.167 Y120.679 E47.8585
G1 X35.236 Y121.394 E48.01467
;MESH:NONMESH
G0 F300 X35.236 Y121.394 Z0.64
G0 F6000 X34.766 Y120.578
;TIME_ELAPSED:23.866901
;LAYER:1
M106 S127.5
;TYPE:WALL-OUTER
;MESH:SmallCylinder.stl
G1 F600 X35.502 Y120.014 E48.13803
G1 X36.067 Y119.277 E48.26158
G1 X36.422 Y118.42 E48.38499
G1 X36.543 Y117.5 E48.50845
G1 X36.422 Y116.58 E48.6319
G1 X36.067 Y115.723 E48.75531
G1 X35.502 Y114.986 E48.87886
G1 X34.766 Y114.422 E49.00222
G1 X33.909 Y114.067 E49.12563
G1 X32.989 Y113.946 E49.24908
G1 X32.068 Y114.067 E49.37266
G1 X31.212 Y114.422 E49.49595
