;FLAVOR:Marlin
;TIME:8311
;Filament used: 17.0246m
;Layer height: 0.32
;MINX:31.375
;MINY:30.941
;MINZ:0.32
;MAXX:203.737
;MAXY:204.807
;MAXZ:8.64
;Generated with Cura_SteamEngine 4.13.1
M140 S50
M105
M190 S50
M104 S200
M105
M109 S200
M82 ;absolute extrusion mode
; Ender 3 Custom Start G-code
G92 E0 ; Reset Extruder
G28 ; Home all axes
G1 Z2.0 F3000 ; Move Z Axis up little to prevent scratching of Heat Bed
G1 X0.1 Y20 Z0.3 F5000.0 ; Move to start position
G1 X0.1 Y200.0 Z0.3 F1500.0 E15 ; Draw the first line
G1 X0.4 Y200.0 Z0.3 F5000.0 ; Move to side a little
G1 X0.4 Y20 Z0.3 F1500.0 E30 ; Draw the second line
G92 E0 ; Reset Extruder
G1 Z2.0 F3000 ; Move Z Axis up little to prevent scratching of Heat Bed
G1 X5 Y20 Z0.3 F5000.0 ; Move over to prevent blob squish
G92 E0
G92 E0
G1 F2700 E-5
;LAYER_COUNT:27
;LAYER:0
M107
G0 F6000 X77.611 Y44.33 Z0.32
;TYPE:SKIRT
G1 F2700 E0
G1 F1200 X77.839 Y43.954 E0.0585
G1 X78.202 Y43.37 E0.14998
G1 X78.803 Y42.49 E0.29176
G1 X79.266 Y41.87 E0.3947
G1 X79.414 Y41.675 E0.42727
G1 X79.657 Y41.364 E0.47978
G1 X80.103 Y40.804 E0.57503
G1 X80.788 Y40.014 E0.71414
G1 X81.401 Y39.366 E0.83281
G1 X81.725 Y39.033 E0.89462
G1 X82.213 Y38.545 E0.98644
G1 X83.01 Y37.815 E1.13023
G1 X83.726 Y37.214 E1.25459
G1 X84.058 Y36.943 E1.31161
G1 X84.615 Y36.501 E1.40621
G1 X85.467 Y35.882 E1.54632
G1 X86.081 Y35.474 E1.64439
G1 X86.523 Y35.189 E1.71436
G1 X87.23 Y34.748 E1.82522
G1 X88.148 Y34.23 E1.96545
G1 X88.793 Y33.901 E2.06178
G1 X89.285 Y33.659 E2.13473
G1 X89.995 Y33.321 E2.23934
G1 X90.979 Y32.905 E2.38147
G1 X91.863 Y32.576 E2.50696
G1 X92.254 Y32.438 E2.56213
G1 X92.945 Y32.203 E2.65923
G1 X93.96 Y31.905 E2.79997
G1 X94.922 Y31.668 E2.93178
G1 X95.246 Y31.594 E2.97599
G1 X95.98 Y31.434 E3.07594
G1 X97.045 Y31.249 E3.21975
G1 X97.798 Y31.152 E3.32075
G1 X98.221 Y31.103 E3.37741
G1 X99.102 Y31.014 E3.49521
G1 X100.152 Y30.953 E3.63514
G1 X100.874 Y30.942 E3.73121
G1 X101.348 Y30.941 E3.79427
G1 X101.542 Y30.942 E3.82008
G1 X102.252 Y30.953 E3.91455
G1 X103.295 Y31.013 E4.05354
G1 X104.009 Y31.084 E4.149
G1 X104.659 Y31.159 E4.23605
G1 X105.567 Y31.276 E4.35785
G1 X108.066 Y31.634 E4.69371
G1 X110.508 Y31.913 E5.02071
G1 X112.983 Y32.125 E5.35119
G1 X115.432 Y32.267 E5.67755
G1 X117.93 Y32.339 E6.01003
G1 X120.404 Y32.341 E6.33917
G1 X122.853 Y32.273 E6.66511
G1 X125.339 Y32.135 E6.99636
G1 X127.854 Y31.923 E7.33214
G1 X129.343 Y31.763 E7.53138
G1 X129.888 Y31.702 E7.60434
G1 X130.605 Y31.63 E7.70021
G1 X131.663 Y31.568 E7.84121
G1 X132.45 Y31.556 E7.94592
G1 X133.054 Y31.556 E8.02628
G1 X133.748 Y31.566 E8.11862
G1 X134.8 Y31.626 E8.25881
G1 X135.745 Y31.721 E8.38516
G1 X136.23 Y31.778 E8.45013
G1 X136.884 Y31.863 E8.53787
G1 X137.928 Y32.044 E8.67884
G1 X138.814 Y32.238 E8.7995
G1 X139.202 Y32.33 E8.85256
G1 X139.945 Y32.514 E8.95439
G1 X140.958 Y32.81 E9.0948
G1 X141.829 Y33.107 E9.21723
G1 X142.276 Y33.267 E9.28039
G1 X142.884 Y33.493 E9.36669
G1 X143.877 Y33.912 E9.51007
G1 X144.783 Y34.342 E9.6435
G1 X145.124 Y34.512 E9.69419
G1 X145.757 Y34.834 E9.78867
G1 X146.701 Y35.366 E9.93283
G1 X147.421 Y35.816 E10.04579
G1 X147.897 Y36.122 E10.12108
G1 X148.427 Y36.474 E10.20572
G1 X149.267 Y37.084 E10.34384
G1 X150.036 Y37.694 E10.47442
G1 X150.355 Y37.956 E10.52934
G1 X150.889 Y38.405 E10.62216
G1 X151.675 Y39.125 E10.76397
G1 X152.372 Y39.823 E10.89521
G1 X152.642 Y40.104 E10.94705
G1 X153.161 Y40.655 E11.04775
G1 X153.848 Y41.449 E11.18744
G1 X154.378 Y42.118 E11.30099
G1 X154.676 Y42.505 E11.36597
G1 X155.097 Y43.068 E11.4595
G1 X155.682 Y43.923 E11.59733
G1 X156.194 Y44.744 E11.72605
G1 X156.413 Y45.109 E11.78268
G1 X156.572 Y45.38 E11.82449
G1 X157.898 Y47.579 E12.16611
G1 X159.21 Y49.621 E12.48902
G1 X160.636 Y51.71 E12.82553
G1 X162.065 Y53.678 E13.14909
G1 X163.581 Y55.647 E13.4797
G1 X165.174 Y57.599 E13.8149
G1 X166.758 Y59.433 E14.1373
G1 X168.442 Y61.274 E14.46924
G1 X170.161 Y63.05 E14.79807
G1 X171.912 Y64.76 E15.12368
G1 X173.767 Y66.47 E15.45933
G1 X175.606 Y68.073 E15.7839
G1 X177.533 Y69.659 E16.11593
G1 X179.484 Y71.174 E16.44456
G1 X181.465 Y72.624 E16.77117
G1 X183.526 Y74.044 E17.10415
G1 X185.579 Y75.377 E17.4298
G1 X187.702 Y76.67 E17.76051
G1 X188.303 Y77.012 E17.85251
G1 X190.322 Y78.194 E18.16376
G1 X190.725 Y78.439 E18.22651
G1 X191.309 Y78.802 E18.31799
G1 X192.189 Y79.403 E18.45976
G1 X192.809 Y79.866 E18.56271
G1 X193.004 Y80.014 E18.59528
G1 X193.306 Y80.25 E18.64627
G1 X193.857 Y80.688 E18.73991
G1 X194.661 Y81.384 E18.88139
G1 X195.313 Y82.002 E19.00091
G1 X195.646 Y82.326 E19.06272
G1 X196.133 Y82.813 E19.15435
G1 X196.859 Y83.604 E19.29719
G1 X197.379 Y84.222 E19.40464
G1 X197.746 Y84.671 E19.48179
G1 X198.176 Y85.213 E19.57384
G1 X198.801 Y86.074 E19.71538
G1 X199.321 Y86.861 E19.84087
G1 X199.544 Y87.21 E19.89598
G1 X199.931 Y87.833 E19.99355
G1 X200.448 Y88.749 E20.13349
G1 X200.858 Y89.555 E20.25379
G1 X201.083 Y90.015 E20.32192
G1 X201.365 Y90.61 E20.40952
G1 X201.785 Y91.606 E20.55333
G1 X202.086 Y92.418 E20.66854
G1 X202.241 Y92.857 E20.73048
G1 X202.474 Y93.541 E20.82661
G1 X202.775 Y94.567 E20.96886
G1 X203.011 Y95.526 E21.10026
G1 X203.086 Y95.853 E21.14489
G1 X203.247 Y96.592 E21.24551
G1 X203.43 Y97.652 E21.38862
G1 X203.537 Y98.492 E21.50128
G1 X203.594 Y98.997 E21.56889
G1 X203.664 Y99.697 E21.66249
G1 X203.725 Y100.75 E21.80281
G1 X203.736 Y101.468 E21.89835
G1 X203.737 Y101.948 E21.96221
G1 X203.726 Y102.83 E22.07956
G1 X203.665 Y103.892 E22.22108
G1 X203.574 Y104.798 E22.34222
G1 X203.519 Y105.267 E22.40504
G1 X203.374 Y106.378 E22.5541
G1 X203.075 Y108.469 E22.83512
G1 X202.794 Y110.927 E23.16427
G1 X202.581 Y113.408 E23.49555
G1 X202.442 Y115.841 E23.81977
G1 X202.369 Y118.349 E24.15358
G1 X202.367 Y120.823 E24.48272
G1 X202.435 Y123.294 E24.81159
G1 X202.572 Y125.732 E25.13645
G1 X202.787 Y128.284 E25.47717
G1 X202.929 Y129.621 E25.65605
G1 X203.022 Y130.448 E25.76677
G1 X203.092 Y131.149 E25.86049
G1 X203.153 Y132.2 E26.00055
G1 X203.164 Y132.918 E26.09609
G1 X203.165 Y133.398 E26.15995
G1 X203.154 Y134.28 E26.2773
G1 X203.093 Y135.342 E26.41882
G1 X203.002 Y136.248 E26.53996
G1 X202.946 Y136.721 E26.60333
G1 X202.86 Y137.385 E26.69241
G1 X202.682 Y138.421 E26.83225
G1 X202.517 Y139.184 E26.93611
G1 X202.371 Y139.81 E27.02163
G1 X202.207 Y140.472 E27.11236
G1 X201.91 Y141.485 E27.25281
G1 X201.623 Y142.327 E27.37116
G1 X201.483 Y142.72 E27.42666
G1 X201.228 Y143.408 E27.52428
G1 X200.805 Y144.412 E27.66922
G1 X200.396 Y145.274 E27.79616
G1 X200.197 Y145.674 E27.85559
G1 X199.885 Y146.286 E27.94698
G1 X199.37 Y147.201 E28.08667
G1 X198.992 Y147.81 E28.18203
G1 X198.703 Y148.262 E28.25341
G1 X198.265 Y148.927 E28.35935
G1 X197.622 Y149.812 E28.50488
G1 X197.018 Y150.571 E28.63393
G1 X196.742 Y150.906 E28.69168
G1 X196.297 Y151.434 E28.78355
G1 X195.605 Y152.19 E28.9199
G1 X195.112 Y152.686 E29.01294
G1 X194.935 Y152.861 E29.04605
G1 X194.633 Y153.151 E29.10176
G1 X194.118 Y153.639 E29.19615
G1 X193.306 Y154.345 E29.3393
G1 X192.727 Y154.806 E29.43776
G1 X192.317 Y155.123 E29.50671
G1 X191.629 Y155.638 E29.62105
G1 X190.774 Y156.223 E29.75887
G1 X189.995 Y156.708 E29.88096
G1 X189.632 Y156.925 E29.93722
G1 X188.504 Y157.583 E30.11096
G1 X186.833 Y158.53 E30.36649
G1 X184.736 Y159.797 E30.69244
G1 X182.627 Y161.155 E31.02616
G1 X180.601 Y162.541 E31.35274
G1 X178.595 Y163.999 E31.68266
G1 X176.623 Y165.52 E32.01399
G1 X174.73 Y167.068 E32.33932
G1 X172.838 Y168.704 E32.67209
G1 X171.024 Y170.365 E32.99931
G1 X169.235 Y172.1 E33.33087
G1 X167.518 Y173.863 E33.65827
G1 X165.837 Y175.688 E33.98837
G1 X164.217 Y177.551 E34.31683
G1 X162.641 Y179.469 E34.64709
G1 X161.122 Y181.426 E34.97668
G1 X159.682 Y183.397 E35.30143
G1 X158.26 Y185.464 E35.63522
G1 X156.921 Y187.531 E35.96287
G1 X155.836 Y189.323 E36.24157
G1 X155.224 Y190.327 E36.398
G1 X154.87 Y190.894 E36.48693
G1 X154.281 Y191.755 E36.62572
G1 X153.709 Y192.518 E36.75259
G1 X153.445 Y192.857 E36.80975
G1 X153.001 Y193.415 E36.90462
G1 X152.314 Y194.208 E37.04421
G1 X151.66 Y194.899 E37.17078
G1 X151.395 Y195.17 E37.22121
G1 X150.865 Y195.7 E37.32093
G1 X150.071 Y196.428 E37.46424
G1 X149.342 Y197.039 E37.59079
G1 X149.018 Y197.301 E37.64622
G1 X148.454 Y197.748 E37.74197
G1 X147.591 Y198.375 E37.88389
G1 X147.008 Y198.761 E37.97691
G1 X146.443 Y199.123 E38.06618
G1 X145.859 Y199.486 E38.15766
G1 X144.941 Y200.004 E38.2979
G1 X144.154 Y200.405 E38.41541
G1 X143.692 Y200.631 E38.48383
G1 X143.098 Y200.913 E38.57131
G1 X142.103 Y201.334 E38.71505
G1 X141.263 Y201.646 E38.83426
G1 X140.764 Y201.822 E38.90466
G1 X140.147 Y202.032 E38.99137
G1 X139.116 Y202.334 E39.1343
G1 X138.189 Y202.562 E39.2613
G1 X137.8 Y202.65 E39.31436
G1 X137.058 Y202.81 E39.41535
G1 X136.024 Y202.988 E39.55493
G1 X135.195 Y203.094 E39.66612
G1 X134.719 Y203.148 E39.72986
G1 X134.017 Y203.219 E39.82373
G1 X132.953 Y203.281 E39.96552
G1 X132.178 Y203.293 E40.06864
G1 X131.563 Y203.293 E40.15046
G1 X130.865 Y203.283 E40.24333
G1 X130.171 Y203.253 E40.33575
G1 X129.467 Y203.203 E40.42964
G1 X127.819 Y203.062 E40.6497
G1 X125.362 Y202.923 E40.9771
G1 X122.88 Y202.852 E41.30744
G1 X120.405 Y202.852 E41.63672
G1 X117.94 Y202.921 E41.96479
G1 X115.453 Y203.062 E42.29619
G1 X113.002 Y203.27 E42.62345
G1 X110.561 Y203.547 E42.95028
G1 X108.077 Y203.9 E43.28408
G1 X105.372 Y204.366 E43.64925
G1 X105.249 Y204.389 E43.6659
G1 X104.576 Y204.495 E43.75654
G1 X103.624 Y204.617 E43.88423
G1 X103.199 Y204.664 E43.94112
G1 X102.496 Y204.734 E44.03511
G1 X101.448 Y204.795 E44.17477
G1 X100.727 Y204.806 E44.2707
G1 X100.252 Y204.807 E44.3339
G1 X100.058 Y204.806 E44.35971
G1 X99.348 Y204.795 E44.45418
G1 X98.305 Y204.735 E44.59317
G1 X97.591 Y204.664 E44.68863
G1 X96.942 Y204.589 E44.77555
G1 X96.276 Y204.504 E44.86487
G1 X95.201 Y204.319 E45.00999
G1 X94.301 Y204.122 E45.13256
G1 X93.835 Y204.012 E45.19626
G1 X93.186 Y203.851 E45.28522
G1 X92.172 Y203.554 E45.42579
G1 X91.419 Y203.298 E45.53161
G1 X90.855 Y203.097 E45.61126
G1 X90.196 Y202.851 E45.70485
G1 X89.227 Y202.442 E45.84478
G1 X88.571 Y202.132 E45.9413
G1 X88.021 Y201.861 E46.02288
G1 X87.385 Y201.538 E46.11778
G1 X86.445 Y201.008 E46.26134
G1 X85.619 Y200.493 E46.39084
G1 X85.29 Y200.28 E46.44299
G1 X84.688 Y199.881 E46.53907
G1 X83.831 Y199.259 E46.67995
G1 X83.12 Y198.694 E46.80077
G1 X82.752 Y198.391 E46.86419
G1 X82.243 Y197.964 E46.95258
G1 X81.43 Y197.219 E47.09929
G1 X80.86 Y196.648 E47.20663
G1 X80.489 Y196.265 E47.27757
G1 X80.005 Y195.754 E47.37121
G1 X79.296 Y194.937 E47.51512
G1 X78.715 Y194.204 E47.63956
G1 X78.436 Y193.839 E47.70068
G1 X78.033 Y193.301 E47.79011
G1 X77.432 Y192.425 E47.93145
G1 X77.027 Y191.776 E48.03322
G1 X76.779 Y191.365 E48.09709
G1 X76.452 Y190.806 E48.18325
G1 X76.252 Y190.451 E48.23745
G1 X75.571 Y189.193 E48.42777
G1 X74.365 Y187.039 E48.7562
G1 X73.089 Y184.902 E49.08733
G1 X71.761 Y182.815 E49.41643
G1 X70.394 Y180.794 E49.74104
G1 X68.922 Y178.747 E50.07647
G1 X67.436 Y176.799 E50.40243
G1 X65.86 Y174.849 E50.736
G1 X64.27 Y172.99 E51.06145
G1 X62.618 Y171.168 E51.38865
G1 X60.884 Y169.361 E51.72184
G1 X59.137 Y167.64 E52.04809
G1 X57.322 Y165.95 E52.37803
G1 X55.447 Y164.301 E52.71023
G1 X53.562 Y162.737 E53.03609
G1 X51.579 Y161.183 E53.37127
G1 X49.612 Y159.729 E53.69669
G1 X47.622 Y158.344 E54.01925
G1 X44.757 Y156.484 E54.4737
G1 X44.351 Y156.231 E54.53734
G1 X43.483 Y155.637 E54.67727
G1 X42.728 Y155.071 E54.80281
G1 X42.368 Y154.792 E54.8634
G1 X41.813 Y154.349 E54.95788
G1 X41.045 Y153.683 E55.09312
G1 X40.342 Y153.019 E55.22177
G1 X40.01 Y152.694 E55.28358
G1 X39.516 Y152.198 E55.37672
G1 X38.806 Y151.422 E55.51665
G1 X38.256 Y150.767 E55.63044
G1 X37.942 Y150.382 E55.69653
G1 X37.509 Y149.836 E55.78924
G1 X36.887 Y148.98 E55.93001
G1 X36.368 Y148.195 E56.05521
G1 X36.105 Y147.784 E56.12013
G1 X35.753 Y147.216 E56.20903
G1 X35.245 Y146.316 E56.34652
G1 X34.885 Y145.611 E56.45184
G1 X34.62 Y145.072 E56.53175
G1 X34.321 Y144.442 E56.62452
G1 X33.894 Y143.427 E56.77102
G1 X33.595 Y142.619 E56.88564
G1 X33.413 Y142.105 E56.95818
G1 X33.201 Y141.479 E57.04611
G1 X32.907 Y140.476 E57.18517
G1 X32.734 Y139.778 E57.28084
G1 X32.587 Y139.145 E57.3673
G1 X32.44 Y138.472 E57.45894
G1 X32.255 Y137.409 E57.60249
G1 X32.142 Y136.522 E57.72145
G1 X32.088 Y136.034 E57.78677
G1 X32.02 Y135.359 E57.87703
G1 X31.958 Y134.282 E58.02055
G1 X31.947 Y133.397 E58.1383
G1 X31.949 Y132.907 E58.20349
G1 X31.96 Y132.198 E58.29783
G1 X32.019 Y131.155 E58.43681
G1 X32.111 Y130.242 E58.55889
G1 X32.177 Y129.663 E58.63642
G1 X32.433 Y127.111 E58.97765
G1 X32.609 Y124.653 E59.3055
G1 X32.715 Y122.202 E59.63188
G1 X32.753 Y119.701 E59.96466
G1 X32.719 Y117.218 E60.29503
G1 X32.617 Y114.76 E60.62232
G1 X32.445 Y112.308 E60.94934
G1 X32.202 Y109.832 E61.28033
G1 X31.882 Y107.324 E61.6167
G1 X31.743 Y106.396 E61.74154
G1 X31.707 Y106.138 E61.7762
G1 X31.572 Y105.081 E61.91796
G1 X31.519 Y104.615 E61.98036
G1 X31.448 Y103.912 E62.07436
G1 X31.386 Y102.831 E62.21842
G1 X31.375 Y101.941 E62.33683
G1 X31.377 Y101.458 E62.40109
G1 X31.388 Y100.751 E62.49516
G1 X31.447 Y99.716 E62.63308
G1 X31.538 Y98.802 E62.75528
G1 X31.594 Y98.329 E62.81865
G1 X31.68 Y97.665 E62.90773
G1 X31.858 Y96.629 E63.04758
G1 X32.023 Y95.866 E63.15143
G1 X32.17 Y95.236 E63.2375
G1 X32.331 Y94.587 E63.32646
G1 X32.628 Y93.573 E63.46703
G1 X32.884 Y92.82 E63.57284
G1 X33.077 Y92.278 E63.64938
G1 X33.319 Y91.626 E63.74191
G1 X33.748 Y90.612 E63.88839
G1 X34.13 Y89.81 E64.00657
G1 X34.34 Y89.384 E64.06976
G1 X34.651 Y88.773 E64.16097
G1 X35.169 Y87.853 E64.30144
G1 X35.558 Y87.226 E64.3996
G1 X35.93 Y86.647 E64.49116
G1 X36.28 Y86.118 E64.57555
G1 X36.916 Y85.242 E64.71957
G1 X37.517 Y84.486 E64.84806
G1 X37.776 Y84.171 E64.90231
G1 X38.223 Y83.639 E64.99476
G1 X38.946 Y82.849 E65.13723
G1 X39.644 Y82.152 E65.26846
G1 X39.92 Y81.887 E65.31937
G1 X40.464 Y81.374 E65.41885
G1 X41.265 Y80.681 E65.55976
G1 X41.942 Y80.144 E65.67472
G1 X42.352 Y79.829 E65.74351
G1 X42.881 Y79.433 E65.83142
G1 X43.754 Y78.835 E65.9722
G1 X44.552 Y78.339 E66.09721
G1 X46.935 Y76.898 E66.4677
G1 X49.033 Y75.547 E66.79968
G1 X51.065 Y74.157 E67.12722
G1 X53.071 Y72.699 E67.45714
G1 X55.036 Y71.184 E67.78725
G1 X56.951 Y69.619 E68.11628
G1 X58.82 Y68.002 E68.44507
G1 X60.647 Y66.329 E68.77465
G1 X62.432 Y64.598 E69.10545
G1 X64.171 Y62.813 E69.437
G1 X65.811 Y61.032 E69.7591
G1 X67.45 Y59.148 E70.09132
G1 X69.035 Y57.22 E70.42337
G1 X70.527 Y55.295 E70.74739
G1 X71.993 Y53.29 E71.07784
G1 X73.407 Y51.235 E71.4097
G1 X74.753 Y49.156 E71.7392
G1 X76.025 Y47.065 E72.06482
G1 X76.508 Y46.217 E72.19466
G1 X77.611 Y44.33 E72.48545
G0 F6000 X78.467 Y44.846
G1 F1200 X78.688 Y44.482 E72.5421
G1 X79.051 Y43.898 E72.63358
G1 X79.604 Y43.088 E72.76406
G1 X80.067 Y42.468 E72.86701
G1 X80.357 Y42.091 E72.93029
G1 X80.885 Y41.427 E73.04315
G1 X81.516 Y40.7 E73.17122
G1 X82.119 Y40.062 E73.28802
G1 X82.432 Y39.74 E73.34776
G1 X82.92 Y39.252 E73.43957
G1 X83.653 Y38.58 E73.57187
G1 X84.36 Y37.987 E73.69464
G1 X84.68 Y37.727 E73.74949
G1 X85.237 Y37.285 E73.84409
G1 X86.02 Y36.715 E73.97294
G1 X86.801 Y36.198 E74.09755
G1 X87.19 Y35.951 E74.15885
G1 X87.758 Y35.598 E74.24783
G1 X88.603 Y35.121 E74.37692
G1 X89.428 Y34.702 E74.50002
G1 X89.84 Y34.502 E74.56095
G1 X90.424 Y34.225 E74.64694
G1 X91.329 Y33.842 E74.77768
G1 X92.2 Y33.517 E74.90137
G1 X92.576 Y33.384 E74.95443
G1 X93.267 Y33.149 E75.05153
G1 X94.201 Y32.875 E75.18103
G1 X94.975 Y32.683 E75.28712
G1 X95.459 Y32.571 E75.35321
G1 X96.193 Y32.411 E75.45316
G1 X97.173 Y32.241 E75.58549
G1 X98.089 Y32.124 E75.70834
G1 X98.499 Y32.079 E75.76321
G1 X99.201 Y32.009 E75.85707
G1 X100.167 Y31.953 E75.98581
G1 X101.064 Y31.941 E76.10515
G1 X101.526 Y31.942 E76.16662
G1 X102.236 Y31.953 E76.26109
G1 X103.196 Y32.008 E76.38902
G1 X103.91 Y32.079 E76.48448
G1 X104.395 Y32.134 E76.54941
G1 X105.425 Y32.266 E76.68757
G1 X107.918 Y32.623 E77.02262
G1 X110.415 Y32.908 E77.35698
G1 X112.911 Y33.123 E77.69028
G1 X115.415 Y33.267 E78.02396
G1 X117.901 Y33.339 E78.35484
G1 X120.396 Y33.341 E78.68678
G1 X122.935 Y33.271 E79.02469
G1 X125.412 Y33.133 E79.35475
