;FLAVOR:Marlin
;TIME:12485
;Filament used: 32.8952m
;Layer height: 0.32
;MINX:2.308
;MINY:15.704
;MINZ:0.32
;MAXX:229.72
;MAXY:218.408
;MAXZ:5.12
;Generated with Cura_SteamEngine 4.13.1
M140 S50
M105
M190 S50
M104 S200
M105
M109 S200
M82 ;absolute extrusion mode
; Ender 3 Custom Start G-code
G92 E0 ; Reset Extruder
G28 ; Home all axes
G1 Z2.0 F3000 ; Move Z Axis up little to prevent scratching of Heat Bed
G1 X0.1 Y20 Z0.3 F5000.0 ; Move to start position
G1 X0.1 Y200.0 Z0.3 F1500.0 E15 ; Draw the first line
G1 X0.4 Y200.0 Z0.3 F5000.0 ; Move to side a little
G1 X0.4 Y20 Z0.3 F1500.0 E30 ; Draw the second line
G92 E0 ; Reset Extruder
G1 Z2.0 F3000 ; Move Z Axis up little to prevent scratching of Heat Bed
G1 X5 Y20 Z0.3 F5000.0 ; Move over to prevent blob squish
G92 E0
G92 E0
G1 F2700 E-5
;LAYER_COUNT:16
;LAYER:0
M107
G0 F6000 X21.514 Y26.243 Z0.32
;TYPE:SKIRT
G1 F2700 E0
G1 F1200 X21.76 Y26.043 E0.04218
G1 X21.957 Y25.887 E0.07561
G1 X22.287 Y25.635 E0.13085
G1 X23.765 Y24.544 E0.37525
G1 X24.33 Y24.139 E0.46774
G1 X24.609 Y23.945 E0.51295
G1 X24.884 Y23.759 E0.55712
G1 X25.224 Y23.537 E0.61114
G1 X26.735 Y22.587 E0.84859
G1 X27.379 Y22.196 E0.94883
G1 X27.81 Y21.944 E1.01525
G1 X28.188 Y21.735 E1.07271
G1 X29.64 Y20.964 E1.29143
G1 X29.84 Y20.86 E1.32142
G1 X30.521 Y20.514 E1.42305
G1 X30.794 Y20.379 E1.46357
G1 X30.997 Y20.282 E1.4935
G1 X31.384 Y20.105 E1.55011
G1 X32.93 Y19.43 E1.77454
G1 X33.714 Y19.101 E1.88766
G1 X34.002 Y18.984 E1.92902
G1 X34.269 Y18.88 E1.96714
G1 X34.588 Y18.761 E2.01244
G1 X34.888 Y18.654 E2.05481
G1 X36.425 Y18.117 E2.27141
G1 X37.055 Y17.906 E2.35981
G1 X37.412 Y17.792 E2.40966
G1 X37.879 Y17.654 E2.47445
G1 X38.257 Y17.55 E2.52661
G1 X39.786 Y17.142 E2.73714
G1 X40.525 Y16.956 E2.83853
G1 X40.821 Y16.885 E2.87902
G1 X41.029 Y16.838 E2.9074
G1 X41.333 Y16.774 E2.94873
G1 X41.726 Y16.696 E3.00203
G1 X43.285 Y16.402 E3.2131
G1 X43.969 Y16.282 E3.30549
G1 X44.361 Y16.22 E3.35829
G1 X44.843 Y16.153 E3.42303
G1 X45.187 Y16.112 E3.46912
G1 X46.799 Y15.931 E3.68493
G1 X47.505 Y15.862 E3.7793
G1 X47.84 Y15.834 E3.82403
G1 X48.123 Y15.814 E3.86177
G1 X48.551 Y15.79 E3.9188
G1 X50.333 Y15.725 E4.15604
G1 X51.046 Y15.708 E4.25092
G1 X51.395 Y15.704 E4.29736
G1 X51.638 Y15.705 E4.32968
G1 X52.147 Y15.716 E4.39742
G1 X53.704 Y15.774 E4.60471
G1 X54.611 Y15.82 E4.72553
G1 X54.952 Y15.842 E4.77099
G1 X55.478 Y15.887 E4.84123
G1 X55.887 Y15.93 E4.89594
G1 X57.393 Y16.101 E5.09759
G1 X58.178 Y16.201 E5.20287
G1 X58.642 Y16.269 E5.26526
G1 X59.022 Y16.332 E5.3165
G1 X59.311 Y16.384 E5.35557
G1 X60.906 Y16.688 E5.57159
G1 X61.599 Y16.828 E5.66565
G1 X62.059 Y16.929 E5.7283
G1 X62.444 Y17.022 E5.781
G1 X62.748 Y17.1 E5.82275
G1 X64.395 Y17.543 E6.04966
G1 X65.04 Y17.725 E6.13882
G1 X65.404 Y17.834 E6.18937
G1 X65.886 Y17.989 E6.25673
G1 X66.264 Y18.118 E6.30987
G1 X67.736 Y18.634 E6.51739
G1 X68.427 Y18.887 E6.61529
G1 X68.788 Y19.026 E6.66675
G1 X69.218 Y19.2 E6.72846
G1 X69.543 Y19.338 E6.77544
G1 X71.049 Y19.996 E6.99409
G1 X71.692 Y20.288 E7.08804
G1 X71.993 Y20.43 E7.13232
G1 X72.219 Y20.54 E7.16576
G1 X72.487 Y20.674 E7.20562
G1 X73.017 Y20.948 E7.285
G1 X74.979 Y21.947 E7.57791
G1 X77.203 Y23.003 E7.90545
G1 X79.498 Y24.015 E8.23915
G1 X81.803 Y24.956 E8.57038
G1 X84.078 Y25.807 E8.89353
G1 X86.432 Y26.614 E9.2246
G1 X88.808 Y27.354 E9.55568
G1 X91.176 Y28.019 E9.8829
G1 X93.58 Y28.623 E10.21267
G1 X96.007 Y29.159 E10.54334
G1 X98.442 Y29.623 E10.87313
G1 X100.861 Y30.015 E11.19915
G1 X103.327 Y30.344 E11.53013
G1 X105.778 Y30.6 E11.85799
G1 X108.243 Y30.787 E12.18688
G1 X110.712 Y30.904 E12.51572
G1 X113.226 Y30.953 E12.85025
G1 X115.667 Y30.931 E13.17502
G1 X118.129 Y30.839 E13.50279
G1 X120.615 Y30.675 E13.83425
G1 X123.083 Y30.443 E14.16404
G1 X125.526 Y30.144 E14.49148
G1 X127.977 Y29.772 E14.8213
G1 X130.408 Y29.333 E15.14995
G1 X132.858 Y28.818 E15.48303
G1 X135.212 Y28.255 E15.80504
G1 X137.653 Y27.595 E16.14145
G1 X139.989 Y26.894 E16.46592
G1 X142.369 Y26.104 E16.79955
G1 X144.668 Y25.27 E17.12491
G1 X146.986 Y24.353 E17.45655
G1 X149.287 Y23.366 E17.78965
G1 X150.922 Y22.617 E18.02891
G1 X153.547 Y21.382 E18.41487
G1 X153.782 Y21.274 E18.44927
G1 X154.743 Y20.846 E18.58923
G1 X155.292 Y20.611 E18.66868
G1 X155.672 Y20.456 E18.72328
G1 X156.921 Y19.971 E18.90154
G1 X157.174 Y19.876 E18.93749
G1 X158.352 Y19.448 E19.10424
G1 X158.696 Y19.328 E19.15271
G1 X159.121 Y19.189 E19.2122
G1 X160.376 Y18.801 E19.38696
G1 X160.616 Y18.729 E19.42029
G1 X161.66 Y18.429 E19.56481
G1 X162.226 Y18.275 E19.64285
G1 X162.606 Y18.179 E19.69499
G1 X163.972 Y17.858 E19.88168
G1 X164.246 Y17.797 E19.91902
G1 X165.258 Y17.583 E20.05664
G1 X165.763 Y17.482 E20.12515
G1 X166.217 Y17.4 E20.18653
G1 X167.533 Y17.187 E20.36389
G1 X167.796 Y17.147 E20.39928
G1 X169.001 Y16.979 E20.56115
G1 X169.342 Y16.935 E20.60689
G1 X169.816 Y16.883 E20.67033
G1 X171.22 Y16.756 E20.85788
G1 X171.488 Y16.735 E20.89364
G1 X172.628 Y16.657 E21.04566
G1 X173.052 Y16.633 E21.10216
G1 X173.5 Y16.616 E21.16181
G1 X174.858 Y16.588 E21.34252
G1 X175.116 Y16.585 E21.37684
G1 X176.323 Y16.586 E21.53742
G1 X176.703 Y16.591 E21.58798
G1 X177.153 Y16.605 E21.64788
G1 X178.515 Y16.672 E21.8293
G1 X178.772 Y16.687 E21.86355
G1 X179.987 Y16.773 E22.0256
G1 X180.339 Y16.802 E22.07259
G1 X180.795 Y16.848 E22.13356
G1 X182.152 Y17.01 E22.31538
G1 X182.416 Y17.045 E22.35081
G1 X183.642 Y17.219 E22.51555
G1 X184.016 Y17.277 E22.5659
G1 X184.442 Y17.35 E22.62341
G1 X185.742 Y17.598 E22.79948
G1 X185.999 Y17.65 E22.83436
G1 X187.191 Y17.904 E22.99651
G1 X187.527 Y17.979 E23.04231
G1 X188.01 Y18.097 E23.10846
G1 X189.363 Y18.456 E23.29469
G1 X189.605 Y18.523 E23.3281
G1 X190.776 Y18.86 E23.49021
G1 X191.118 Y18.963 E23.53773
G1 X191.544 Y19.1 E23.59726
G1 X192.821 Y19.535 E23.77674
G1 X193.072 Y19.623 E23.81213
G1 X194.084 Y19.992 E23.95544
G1 X194.583 Y20.181 E24.02643
G1 X194.994 Y20.345 E24.0853
G1 X196.224 Y20.862 E24.2628
G1 X196.469 Y20.968 E24.29832
G1 X197.589 Y21.468 E24.4615
G1 X197.944 Y21.632 E24.51352
G1 X198.336 Y21.822 E24.57148
G1 X199.546 Y22.433 E24.75182
G1 X199.779 Y22.554 E24.78675
G1 X200.855 Y23.126 E24.94887
G1 X201.157 Y23.291 E24.99465
G1 X201.571 Y23.528 E25.05812
G1 X202.762 Y24.239 E25.24266
G1 X202.987 Y24.377 E25.27777
G1 X204.032 Y25.031 E25.44178
G1 X204.3 Y25.203 E25.48415
G1 X204.688 Y25.463 E25.54629
G1 X205.816 Y26.248 E25.72912
G1 X206.025 Y26.397 E25.76327
G1 X207.022 Y27.123 E25.92735
G1 X207.341 Y27.363 E25.98046
G1 X207.649 Y27.603 E26.03241
G1 X208.727 Y28.468 E26.21629
G1 X208.941 Y28.644 E26.25315
G1 X209.842 Y29.402 E26.4098
G1 X210.166 Y29.683 E26.46686
G1 X210.463 Y29.949 E26.5199
G1 X211.487 Y30.896 E26.70546
G1 X211.686 Y31.084 E26.74188
G1 X212.536 Y31.907 E26.89929
G1 X212.836 Y32.206 E26.95564
G1 X213.125 Y32.505 E27.01096
G1 X214.045 Y33.485 E27.18979
G1 X214.221 Y33.675 E27.22425
G1 X214.936 Y34.469 E27.3664
G1 X215.297 Y34.881 E27.43928
G1 X215.561 Y35.193 E27.49365
G1 X216.436 Y36.264 E27.67764
G1 X216.61 Y36.482 E27.71475
G1 X217.257 Y37.311 E27.85466
G1 X217.598 Y37.76 E27.92967
G1 X217.843 Y38.095 E27.98488
G1 X218.608 Y39.179 E28.1614
G1 X218.755 Y39.392 E28.19583
G1 X219.463 Y40.443 E28.36442
G1 X219.629 Y40.696 E28.40468
G1 X219.872 Y41.08 E28.46513
G1 X220.625 Y42.324 E28.6586
G1 X220.757 Y42.548 E28.69319
G1 X221.389 Y43.646 E28.86173
G1 X221.529 Y43.898 E28.90009
G1 X221.724 Y44.263 E28.95514
G1 X222.374 Y45.53 E29.14459
G1 X222.484 Y45.75 E29.17732
G1 X223 Y46.81 E29.33416
G1 X223.167 Y47.164 E29.38623
G1 X223.355 Y47.581 E29.44709
G1 X223.894 Y48.841 E29.62941
G1 X223.989 Y49.07 E29.6624
G1 X224.448 Y50.207 E29.82553
G1 X224.571 Y50.523 E29.87064
G1 X224.728 Y50.951 E29.93129
G1 X225.265 Y52.5 E30.1494
G1 X225.591 Y53.501 E30.28946
G1 X225.761 Y54.048 E30.36567
G1 X225.875 Y54.444 E30.42049
G1 X226.229 Y55.745 E30.59987
G1 X226.296 Y56.001 E30.63508
G1 X226.549 Y57.015 E30.77412
G1 X226.687 Y57.606 E30.85486
G1 X226.767 Y57.976 E30.90522
G1 X227.038 Y59.339 E31.0901
G1 X227.089 Y59.614 E31.12731
G1 X227.293 Y60.779 E31.28466
G1 X227.354 Y61.152 E31.33495
G1 X227.419 Y61.603 E31.39557
G1 X227.589 Y62.949 E31.57606
G1 X227.62 Y63.216 E31.61182
G1 X227.748 Y64.447 E31.77648
G1 X227.779 Y64.78 E31.82097
G1 X227.814 Y65.249 E31.88354
G1 X227.889 Y66.606 E32.06436
G1 X227.9 Y66.856 E32.09765
G1 X227.943 Y68.107 E32.26418
G1 X227.95 Y68.435 E32.30783
G1 X227.952 Y68.886 E32.36783
G1 X227.931 Y70.313 E32.5577
G1 X227.889 Y71.569 E32.72489
G1 X227.865 Y72.107 E32.79654
G1 X227.835 Y72.564 E32.85747
G1 X227.718 Y73.948 E33.04225
G1 X227.694 Y74.195 E33.07527
G1 X227.587 Y75.218 E33.21211
G1 X227.52 Y75.785 E33.28807
G1 X227.463 Y76.202 E33.34406
G1 X227.253 Y77.56 E33.52688
G1 X227.211 Y77.814 E33.56113
G1 X227.001 Y79.002 E33.72163
G1 X226.925 Y79.4 E33.77554
G1 X226.837 Y79.821 E33.83276
G1 X226.537 Y81.143 E34.01311
G1 X226.474 Y81.409 E34.04948
G1 X226.214 Y82.449 E34.1921
G1 X226.078 Y82.965 E34.26309
G1 X225.961 Y83.379 E34.32033
G1 X225.53 Y84.801 E34.51801
G1 X224.749 Y87.329 E34.87002
G1 X224.087 Y89.713 E35.19919
G1 X223.489 Y92.125 E35.5298
G1 X222.957 Y94.554 E35.86062
G1 X222.5 Y96.991 E36.19049
G1 X222.117 Y99.394 E36.51422
G1 X221.795 Y101.857 E36.84469
G1 X221.54 Y104.365 E37.18007
G1 X221.361 Y106.796 E37.50437
G1 X221.25 Y109.265 E37.83318
G1 X221.208 Y111.744 E38.16303
G1 X221.237 Y114.215 E38.4918
G1 X221.336 Y116.697 E38.82227
G1 X221.503 Y119.145 E39.14871
G1 X221.743 Y121.627 E39.48046
G1 X222.053 Y124.092 E39.81099
G1 X222.427 Y126.518 E40.13755
G1 X222.875 Y128.966 E40.46865
G1 X223.388 Y131.379 E40.79685
G1 X223.966 Y133.77 E41.12411
G1 X224.621 Y136.17 E41.45509
G1 X225.332 Y138.514 E41.78096
G1 X226.14 Y140.883 E42.11396
G1 X226.201 Y141.089 E42.14255
G1 X226.92 Y143.187 E42.4376
G1 X227.054 Y143.595 E42.49473
G1 X227.181 Y144.005 E42.55184
G1 X227.52 Y145.171 E42.71339
G1 X227.581 Y145.387 E42.74325
G1 X227.948 Y146.745 E42.9304
G1 X228.088 Y147.29 E43.00526
G1 X228.19 Y147.718 E43.0638
G1 X228.436 Y148.838 E43.21635
G1 X228.739 Y150.332 E43.41916
G1 X228.865 Y150.996 E43.50908
G1 X228.937 Y151.419 E43.56616
G1 X229.114 Y152.582 E43.72267
G1 X229.148 Y152.822 E43.75492
G1 X229.339 Y154.272 E43.94949
G1 X229.399 Y154.777 E44.01715
G1 X229.44 Y155.184 E44.07157
G1 X229.539 Y156.339 E44.2258
G1 X229.558 Y156.582 E44.25823
G1 X229.657 Y158.095 E44.45995
G1 X229.681 Y158.562 E44.52216
G1 X229.695 Y158.959 E44.57501
G1 X229.718 Y160.13 E44.73083
G1 X229.72 Y160.375 E44.76343
G1 X229.719 Y161.875 E44.96299
G1 X229.713 Y162.332 E45.02379
G1 X229.7 Y162.758 E45.08049
G1 X229.643 Y163.964 E45.24112
G1 X229.63 Y164.202 E45.27283
G1 X229.544 Y165.498 E45.44563
G1 X229.488 Y166.191 E45.53813
G1 X229.45 Y166.585 E45.59079
G1 X229.321 Y167.718 E45.7425
G1 X229.292 Y167.951 E45.77373
G1 X229.09 Y169.462 E45.97655
G1 X229.026 Y169.899 E46.03531
G1 X228.957 Y170.323 E46.09246
G1 X228.742 Y171.506 E46.25242
G1 X228.447 Y172.982 E46.45267
G1 X228.409 Y173.168 E46.47793
G1 X228.297 Y173.685 E46.54831
G1 X228.206 Y174.072 E46.6012
G1 X227.923 Y175.203 E46.75631
G1 X227.86 Y175.447 E46.78983
G1 X227.519 Y176.702 E46.96285
G1 X227.341 Y177.326 E47.04918
G1 X227.221 Y177.721 E47.1041
G1 X226.849 Y178.876 E47.26554
G1 X226.774 Y179.103 E47.29735
G1 X226.307 Y180.459 E47.48815
G1 X226.139 Y180.928 E47.55443
G1 X225.99 Y181.323 E47.61059
G1 X225.546 Y182.442 E47.77075
G1 X224.95 Y183.869 E47.9765
G1 X224.7 Y184.447 E48.06028
G1 X224.528 Y184.824 E48.11541
G1 X224.016 Y185.9 E48.27394
G1 X223.913 Y186.112 E48.3053
G1 X223.226 Y187.486 E48.50967
G1 X223.037 Y187.852 E48.56447
G1 X222.843 Y188.212 E48.61888
G1 X222.256 Y189.263 E48.77904
G1 X222.129 Y189.485 E48.81306
G1 X221.382 Y190.76 E49.00966
G1 X221.152 Y191.142 E49.06898
G1 X220.919 Y191.514 E49.12738
G1 X220.255 Y192.534 E49.2893
G1 X219.422 Y193.767 E49.48727
G1 X219.01 Y194.359 E49.58322
G1 X218.768 Y194.694 E49.6382
G1 X217.951 Y195.783 E49.81932
G1 X217.131 Y196.837 E49.99699
G1 X216.723 Y197.347 E50.08388
G1 X216.46 Y197.665 E50.13878
G1 X215.667 Y198.59 E50.30087
G1 X215.512 Y198.768 E50.33228
G1 X214.657 Y199.728 E50.50331
G1 X214.212 Y200.215 E50.59107
G1 X213.919 Y200.525 E50.64782
G1 X212.947 Y201.515 E50.8324
G1 X211.992 Y202.455 E51.01068
G1 X211.503 Y202.923 E51.10073
G1 X211.213 Y203.191 E51.15326
G1 X210.371 Y203.945 E51.30363
G1 X210.191 Y204.103 E51.3355
G1 X209.029 Y205.102 E51.53937
G1 X208.658 Y205.412 E51.60369
G1 X208.351 Y205.661 E51.65628
G1 X207.419 Y206.391 E51.81378
G1 X207.22 Y206.543 E51.84709
G1 X206.019 Y207.444 E52.04684
G1 X205.64 Y207.72 E52.10921
G1 X205.309 Y207.953 E52.16307
G1 X204.313 Y208.63 E52.32329
G1 X202.982 Y209.503 E52.53506
G1 X202.479 Y209.823 E52.61437
G1 X202.138 Y210.031 E52.66751
G1 X201.126 Y210.626 E52.82369
G1 X200.929 Y210.739 E52.85391
G1 X199.575 Y211.501 E53.06061
G1 X199.196 Y211.707 E53.118
G1 X198.838 Y211.894 E53.17174
G1 X197.749 Y212.441 E53.33387
G1 X197.53 Y212.548 E53.3663
G1 X196.171 Y213.197 E53.56666
G1 X195.79 Y213.373 E53.62249
G1 X195.398 Y213.546 E53.6795
G1 X194.085 Y214.097 E53.86894
G1 X192.87 Y214.584 E54.04308
G1 X192.254 Y214.821 E54.13089
G1 X191.856 Y214.966 E54.18725
G1 X190.747 Y215.349 E54.34334
G1 X190.533 Y215.421 E54.37338
G1 X189.081 Y215.892 E54.57646
G1 X188.644 Y216.027 E54.63731
G1 X188.252 Y216.141 E54.69162
G1 X187.115 Y216.452 E54.84845
G1 X186.889 Y216.512 E54.87956
G1 X185.603 Y216.838 E55.05606
G1 X184.963 Y216.991 E55.1436
G1 X184.571 Y217.077 E55.197
G1 X183.154 Y217.364 E55.38934
G1 X181.884 Y217.597 E55.56112
G1 X181.238 Y217.707 E55.64831
G1 X180.835 Y217.769 E55.70255
G1 X179.659 Y217.929 E55.86045
G1 X179.417 Y217.959 E55.89289
G1 X177.948 Y218.129 E56.08963
G1 X177.479 Y218.177 E56.15235
G1 X177.062 Y218.213 E56.20804
G1 X175.853 Y218.296 E56.36926
G1 X175.609 Y218.31 E56.40178
G1 X174.263 Y218.376 E56.58107
G1 X173.684 Y218.397 E56.65815
G1 X173.28 Y218.405 E56.71191
G1 X172.054 Y218.408 E56.87501
G1 X171.815 Y218.406 E56.90681
G1 X170.387 Y218.381 E57.09682
G1 X169.853 Y218.365 E57.1679
G1 X169.431 Y218.346 E57.2241
G1 X168.302 Y218.274 E57.37461
G1 X166.726 Y218.145 E57.58498
G1 X166.076 Y218.083 E57.67185
G1 X165.668 Y218.037 E57.72647
G1 X164.488 Y217.883 E57.88479
G1 X164.252 Y217.85 E57.91649
G1 X162.812 Y217.633 E58.11024
G1 X162.319 Y217.552 E58.1767
G1 X161.908 Y217.477 E58.23229
G1 X160.706 Y217.238 E58.39533
G1 X160.486 Y217.192 E58.42523
G1 X159.073 Y216.883 E58.61766
G1 X158.585 Y216.769 E58.68433
G1 X158.182 Y216.668 E58.73961
G1 X157.037 Y216.36 E58.89735
G1 X156.828 Y216.302 E58.92621
G1 X155.549 Y215.934 E59.10327
G1 X154.943 Y215.75 E59.18753
G1 X154.556 Y215.625 E59.24164
G1 X153.167 Y215.149 E59.43698
G1 X151.993 Y214.725 E59.60304
G1 X151.334 Y214.477 E59.69672
G1 X150.942 Y214.322 E59.7528
G1 X149.865 Y213.873 E59.90804
G1 X148.45 Y213.255 E60.11346
G1 X147.845 Y212.98 E60.20188
G1 X147.482 Y212.807 E60.25537
G1 X146.422 Y212.281 E60.41281
G1 X146.21 Y212.173 E60.44446
G1 X144.859 Y211.47 E60.64707
G1 X144.482 Y211.268 E60.70398
G1 X144.092 Y211.05 E60.76342
G1 X143.102 Y210.473 E60.91587
G1 X142.323 Y210.002 E61.03698
G1 X140.112 Y208.703 E61.37814
G1 X137.946 Y207.512 E61.70699
G1 X135.742 Y206.379 E62.03669
G1 X133.494 Y205.303 E62.36826
G1 X131.249 Y204.306 E62.69507
G1 X128.916 Y203.345 E63.03075
G1 X126.651 Y202.491 E63.35279
G1 X124.324 Y201.685 E63.68042
G1 X121.947 Y200.937 E64.01195
G1 X119.529 Y200.251 E64.34634
G1 X117.182 Y199.656 E64.66846
G1 X114.723 Y199.104 E65.00375
G1 X112.308 Y198.637 E65.33099
G1 X109.88 Y198.236 E65.65839
G1 X107.434 Y197.903 E65.98681
G1 X104.945 Y197.636 E66.31985
G1 X102.488 Y197.442 E66.64775
G1 X100.037 Y197.318 E66.97425
G1 X97.555 Y197.263 E67.30453
G1 X95.08 Y197.279 E67.63382
G1 X92.57 Y197.365 E67.96794
G1 X90.137 Y197.518 E68.29227
G1 X87.685 Y197.741 E68.61983
G1 X85.203 Y198.039 E68.95241
G1 X82.774 Y198.4 E69.27912
G1 X80.315 Y198.837 E69.61139
G1 X77.915 Y199.334 E69.93746
G1 X75.5 Y199.904 E70.26758
G1 X73.115 Y200.541 E70.59601
G1 X70.712 Y201.255 E70.92952
G1 X68.41 Y202.012 E71.25191
G1 X66.014 Y202.874 E71.59068
