;FLAVOR:Marlin
;TIME:14533
;Filament used: 38.8405m
;Layer height: 0.32
;MINX:4.945
;MINY:14.925
;MINZ:0.32
;MAXX:219.626
;MAXY:219.621
;MAXZ:20.16
;Generated with Cura_SteamEngine 4.13.1
M140 S50
M105
M190 S50
M104 S200
M105
M109 S200
M82 ;absolute extrusion mode
; Ender 3 Custom Start G-code
G92 E0 ; Reset Extruder
G28 ; Home all axes
G1 Z2.0 F3000 ; Move Z Axis up little to prevent scratching of Heat Bed
G1 X0.1 Y20 Z0.3 F5000.0 ; Move to start position
G1 X0.1 Y200.0 Z0.3 F1500.0 E15 ; Draw the first line
G1 X0.4 Y200.0 Z0.3 F5000.0 ; Move to side a little
G1 X0.4 Y20 Z0.3 F1500.0 E30 ; Draw the second line
G92 E0 ; Reset Extruder
G1 Z2.0 F3000 ; Move Z Axis up little to prevent scratching of Heat Bed
G1 X5 Y20 Z0.3 F5000.0 ; Move over to prevent blob squish
G92 E0
G92 E0
G1 F2700 E-5
;LAYER_COUNT:63
;LAYER:0
M107
G0 F6000 X23.396 Y19.542 Z0.32
;TYPE:SKIRT
G1 F2700 E0
G1 F1200 X24.104 Y18.836 E0.13302
G1 X24.806 Y18.236 E0.25588
G1 X25.129 Y17.98 E0.31071
G1 X25.533 Y17.672 E0.3783
G1 X25.614 Y17.613 E0.39163
G1 X26.445 Y17.057 E0.52465
G1 X27.318 Y16.57 E0.65765
G1 X27.952 Y16.27 E0.75096
G1 X28.344 Y16.098 E0.80791
G1 X28.827 Y15.898 E0.87746
G1 X29.77 Y15.566 E1.01047
G1 X30.737 Y15.311 E1.14351
G1 X31.582 Y15.153 E1.25788
G1 X32.04 Y15.084 E1.3195
G1 X32.559 Y15.017 E1.38912
G1 X33.594 Y14.94 E1.5272
G1 X33.842 Y14.932 E1.56021
G1 X34.244 Y14.926 E1.6137
G1 X53.28 Y14.925 E4.14626
G1 X54.158 Y14.936 E4.26308
G1 X55.139 Y14.989 E4.39378
G1 X55.3 Y15.004 E4.41529
G1 X55.96 Y15.083 E4.50373
G1 X56.293 Y15.132 E4.54851
G1 X57.275 Y15.317 E4.68145
G1 X58.24 Y15.58 E4.81452
G1 X59.028 Y15.858 E4.92569
G1 X59.442 Y16.02 E4.98483
G1 X60.201 Y16.347 E5.09478
G1 X60.587 Y16.529 E5.15156
G1 X62.984 Y17.686 E5.50566
G1 X65.231 Y18.694 E5.83331
G1 X67.507 Y19.638 E6.16112
G1 X69.87 Y20.542 E6.49771
G1 X72.131 Y21.331 E6.81631
G1 X74.527 Y22.095 E7.15088
G1 X76.914 Y22.781 E7.48131
G1 X79.3 Y23.394 E7.80905
G1 X81.708 Y23.942 E8.1376
G1 X84.143 Y24.424 E8.46784
G1 X86.57 Y24.833 E8.79528
G1 X89.035 Y25.177 E9.12641
G1 X91.481 Y25.448 E9.45382
G1 X93.957 Y25.652 E9.78434
G1 X96.381 Y25.782 E10.10729
G1 X100.046 Y25.855 E10.59498
G1 X125.574 Y25.855 E13.99124
G1 X128.155 Y25.818 E14.33466
G1 X130.625 Y25.714 E14.66356
G1 X133.108 Y25.538 E14.99473
G1 X135.557 Y25.295 E15.32214
G1 X138.025 Y24.979 E15.65317
G1 X140.427 Y24.601 E15.97666
G1 X142.914 Y24.139 E16.3132
G1 X145.275 Y23.631 E16.63449
G1 X147.727 Y23.03 E16.97036
G1 X150.079 Y22.383 E17.2949
G1 X152.473 Y21.65 E17.62799
G1 X154.817 Y20.859 E17.95712
G1 X157.128 Y20.007 E18.2848
G1 X159.454 Y19.073 E18.61827
G1 X161.73 Y18.083 E18.94848
G1 X163.18 Y17.412 E19.16104
G1 X164.184 Y16.936 E19.30886
G1 X164.576 Y16.759 E19.36609
G1 X165.244 Y16.47 E19.46292
G1 X166.176 Y16.11 E19.59584
G1 X167.135 Y15.825 E19.72894
G1 X168.319 Y15.585 E19.88966
G1 X168.692 Y15.528 E19.93986
G1 X169.125 Y15.47 E19.99799
G1 X169.253 Y15.455 E20.01513
G1 X170.25 Y15.378 E20.14817
G1 X171.25 Y15.382 E20.28121
G1 X172.136 Y15.452 E20.39945
G1 X172.675 Y15.514 E20.47163
G1 X173.663 Y15.668 E20.60466
G1 X174.636 Y15.9 E20.73774
G1 X175.841 Y16.307 E20.90695
G1 X176.17 Y16.437 E20.95402
G1 X176.576 Y16.605 E21.01247
G1 X177.481 Y17.031 E21.14555
G1 X178.348 Y17.528 E21.2785
G1 X179.161 Y18.083 E21.40946
G1 X179.589 Y18.401 E21.4804
G1 X180.367 Y19.029 E21.61342
G1 X181.092 Y19.717 E21.74639
G1 X181.916 Y20.653 E21.91229
G1 X182.169 Y20.971 E21.96636
G1 X182.496 Y21.401 E22.03823
G1 X182.56 Y21.489 E22.0527
G1 X183.115 Y22.32 E22.18565
G1 X183.602 Y23.193 E22.31864
G1 X183.913 Y23.854 E22.41583
G1 X184.084 Y24.247 E22.47285
G1 X184.243 Y24.628 E22.52778
G1 X184.581 Y25.569 E22.6608
G1 X184.842 Y26.534 E22.7938
G1 X185.017 Y27.461 E22.9193
G1 X185.17 Y28.477 E23.056
G1 X185.586 Y31.016 E23.39829
G1 X186.06 Y33.467 E23.73041
G1 X186.596 Y35.87 E24.05797
G1 X187.199 Y38.256 E24.38538
G1 X187.877 Y40.65 E24.71641
G1 X188.621 Y43.021 E25.04701
G1 X189.428 Y45.353 E25.37531
G1 X190.305 Y47.678 E25.70591
G1 X191.23 Y49.936 E26.03054
G1 X192.249 Y52.23 E26.36449
G1 X193.318 Y54.47 E26.6947
G1 X194.436 Y56.649 E27.02053
G1 X195.624 Y58.811 E27.34872
G1 X196.877 Y60.946 E27.67807
G1 X198.205 Y63.072 E28.01156
G1 X199.558 Y65.106 E28.33657
G1 X201.003 Y67.149 E28.66948
G1 X202.475 Y69.11 E28.9957
G1 X204.039 Y71.077 E29.33003
G1 X205.182 Y72.445 E29.56719
G1 X205.55 Y72.878 E29.6428
G1 X205.815 Y73.199 E29.69817
G1 X206.211 Y73.697 E29.78282
G1 X206.801 Y74.504 E29.91582
G1 X207.325 Y75.355 E30.04878
G1 X207.899 Y76.513 E30.22073
G1 X208.047 Y76.855 E30.2703
G1 X208.407 Y77.787 E30.40323
G1 X208.691 Y78.746 E30.53629
G1 X208.937 Y79.968 E30.70213
G1 X208.996 Y80.362 E30.75513
G1 X209.1 Y81.293 E30.87976
G1 X209.13 Y81.839 E30.95251
G1 X209.138 Y82.081 E30.98472
G1 X209.145 Y82.494 E31.03968
G1 X209.146 Y125.562 E36.76947
G1 X209.183 Y128.143 E37.11288
G1 X209.287 Y130.614 E37.44191
G1 X209.463 Y133.096 E37.77295
G1 X209.706 Y135.545 E38.10037
G1 X210.022 Y138.013 E38.43139
G1 X210.4 Y140.415 E38.75489
G1 X210.862 Y142.902 E39.09142
G1 X211.37 Y145.263 E39.41272
G1 X211.971 Y147.715 E39.74859
G1 X212.618 Y150.067 E40.07312
G1 X213.351 Y152.461 E40.40622
G1 X214.142 Y154.805 E40.73534
G1 X214.994 Y157.116 E41.06303
G1 X215.928 Y159.442 E41.3965
G1 X216.916 Y161.714 E41.72611
G1 X217.588 Y163.167 E41.93909
G1 X218.085 Y164.215 E42.0934
G1 X218.246 Y164.567 E42.14489
G1 X218.481 Y165.105 E42.223
G1 X218.673 Y165.57 E42.28993
G1 X219.005 Y166.513 E42.42294
G1 X219.26 Y167.48 E42.55598
G1 X219.418 Y168.325 E42.67035
G1 X219.487 Y168.783 E42.73197
G1 X219.552 Y169.281 E42.79879
G1 X219.626 Y170.278 E42.93179
G1 X219.62 Y171.278 E43.06484
G1 X219.551 Y172.14 E43.17989
G1 X219.492 Y172.651 E43.24832
G1 X219.337 Y173.639 E43.38137
G1 X219.104 Y174.611 E43.51435
G1 X218.701 Y175.807 E43.68226
G1 X218.551 Y176.187 E43.73661
G1 X218.355 Y176.655 E43.80411
G1 X217.923 Y177.557 E43.93717
G1 X217.42 Y178.421 E44.07018
G1 X216.923 Y179.144 E44.1869
G1 X216.672 Y179.483 E44.24302
G1 X216.426 Y179.805 E44.29693
G1 X215.78 Y180.569 E44.43003
G1 X215.076 Y181.278 E44.56296
G1 X214.348 Y181.904 E44.6907
G1 X214.03 Y182.157 E44.74476
G1 X213.628 Y182.464 E44.81206
G1 X213.52 Y182.543 E44.82986
G1 X212.742 Y183.069 E44.9548
G1 X211.836 Y183.633 E45.09678
G1 X209.723 Y184.988 E45.43073
G1 X207.659 Y186.396 E45.76314
G1 X205.676 Y187.832 E46.08886
G1 X203.715 Y189.341 E46.41806
G1 X201.777 Y190.917 E46.75038
G1 X199.921 Y192.518 E47.07648
G1 X198.094 Y194.186 E47.40561
G1 X196.316 Y195.904 E47.73454
G1 X194.567 Y197.693 E48.06739
G1 X192.909 Y199.486 E48.39229
G1 X191.261 Y201.376 E48.7259
G1 X189.702 Y203.268 E49.05206
G1 X188.18 Y205.223 E49.38168
G1 X186.711 Y207.227 E49.71225
G1 X185.334 Y209.221 E50.03464
G1 X183.25 Y212.477 E50.54896
G1 X183.21 Y212.543 E50.55922
G1 X182.539 Y213.542 E50.71933
G1 X182.208 Y213.987 E50.79311
G1 X181.579 Y214.765 E50.92621
G1 X180.891 Y215.49 E51.05919
G1 X179.947 Y216.319 E51.22633
G1 X179.584 Y216.607 E51.28798
G1 X179.201 Y216.9 E51.35213
G1 X178.374 Y217.462 E51.48516
G1 X177.505 Y217.956 E51.61814
G1 X176.744 Y218.318 E51.73026
G1 X176.341 Y218.493 E51.78871
G1 X175.876 Y218.684 E51.85559
G1 X174.932 Y219.014 E51.98863
G1 X173.964 Y219.267 E52.12174
G1 X173.174 Y219.414 E52.22865
G1 X172.801 Y219.471 E52.27885
G1 X172.368 Y219.529 E52.33697
G1 X172.24 Y219.544 E52.35412
G1 X171.243 Y219.621 E52.48715
G1 X170.243 Y219.617 E52.62019
G1 X169.357 Y219.547 E52.73844
G1 X168.818 Y219.485 E52.81062
G1 X167.83 Y219.331 E52.94365
G1 X166.857 Y219.099 E53.07673
G1 X165.652 Y218.692 E53.24594
G1 X165.323 Y218.562 E53.293
G1 X164.951 Y218.408 E53.34656
G1 X164.516 Y218.216 E53.40982
G1 X163.919 Y217.939 E53.49738
G1 X162.433 Y217.226 E53.71666
G1 X160.188 Y216.226 E54.04363
G1 X157.885 Y215.276 E54.37506
G1 X155.576 Y214.402 E54.70352
G1 X153.233 Y213.588 E55.03351
G1 X150.906 Y212.853 E55.35818
G1 X148.498 Y212.167 E55.69128
G1 X146.089 Y211.552 E56.02206
G1 X143.673 Y211.008 E56.35153
G1 X141.289 Y210.545 E56.67463
G1 X138.808 Y210.132 E57.00924
G1 X136.368 Y209.798 E57.33689
G1 X133.915 Y209.532 E57.66515
G1 X131.458 Y209.335 E57.99308
G1 X128.991 Y209.208 E58.32172
G1 X125.578 Y209.144 E58.77587
G1 X82.778 Y209.143 E64.47001
G1 X82.08 Y209.133 E64.56288
G1 X81.147 Y209.084 E64.68718
G1 X81.035 Y209.074 E64.70214
G1 X80.297 Y208.986 E64.80102
G1 X80.023 Y208.945 E64.83787
G1 X79.041 Y208.758 E64.97087
G1 X78.077 Y208.493 E65.10388
G1 X77.326 Y208.226 E65.20992
G1 X77.093 Y208.135 E65.2432
G1 X76.676 Y207.965 E65.30311
G1 X75.772 Y207.539 E65.43606
G1 X74.904 Y207.042 E65.56913
G1 X74.089 Y206.486 E65.70039
G1 X73.743 Y206.229 E65.75773
G1 X72.965 Y205.601 E65.89075
G1 X72.24 Y204.913 E66.02372
G1 X71.426 Y203.99 E66.18744
G1 X71.276 Y203.802 E66.21944
G1 X70.97 Y203.402 E66.28644
G1 X70.879 Y203.278 E66.30691
G1 X70.32 Y202.449 E66.43993
G1 X69.748 Y201.416 E66.59702
G1 X68.594 Y199.078 E66.9439
G1 X67.436 Y196.891 E67.27313
G1 X66.218 Y194.737 E67.60234
G1 X64.924 Y192.595 E67.93528
G1 X63.619 Y190.567 E68.25612
G1 X62.179 Y188.462 E68.59542
G1 X60.75 Y186.494 E68.91899
G1 X59.24 Y184.534 E69.24816
G1 X57.68 Y182.623 E69.57636
G1 X56.041 Y180.729 E69.90958
G1 X54.395 Y178.931 E70.23389
G1 X52.653 Y177.132 E70.56705
G1 X50.887 Y175.41 E70.8952
G1 X49.067 Y173.732 E71.22455
G1 X47.209 Y172.115 E71.55224
G1 X45.275 Y170.526 E71.88525
G1 X43.345 Y169.028 E72.21028
G1 X41.339 Y167.56 E72.54099
G1 X39.292 Y166.151 E72.8716
G1 X37.212 Y164.802 E73.20143
G1 X35.135 Y163.539 E73.52483
G1 X32.937 Y162.285 E73.8615
G1 X30.778 Y161.134 E74.187
G1 X28.554 Y160.027 E74.51751
G1 X26.301 Y158.984 E74.84781
G1 X24.011 Y158.002 E75.17931
G1 X22.709 Y157.477 E75.36608
G1 X22.343 Y157.333 E75.4184
G1 X22.055 Y157.216 E75.45976
G1 X21.478 Y156.971 E75.54316
G1 X21.091 Y156.801 E75.59939
G1 X20.391 Y156.484 E75.70163
G1 X19.712 Y156.151 E75.80224
G1 X19.345 Y155.954 E75.85766
G1 X18.872 Y155.69 E75.92972
G1 X18.454 Y155.45 E75.99385
G1 X17.811 Y155.071 E76.09315
G1 X17.262 Y154.728 E76.17927
G1 X17.135 Y154.644 E76.19953
G1 X16.843 Y154.445 E76.24654
G1 X16.453 Y154.169 E76.3101
G1 X15.99 Y153.832 E76.38629
G1 X15.428 Y153.415 E76.47939
G1 X14.843 Y152.954 E76.57848
G1 X14.51 Y152.671 E76.63662
G1 X14.063 Y152.278 E76.71581
G1 X13.743 Y151.988 E76.77326
G1 X13.198 Y151.485 E76.87193
G1 X12.666 Y150.963 E76.97109
G1 X12.376 Y150.658 E77.02708
G1 X12.005 Y150.253 E77.10015
G1 X11.64 Y149.846 E77.17289
G1 X11.189 Y149.329 E77.26416
G1 X10.729 Y148.769 E77.36058
G1 X10.451 Y148.405 E77.42151
G1 X10.158 Y148.006 E77.48737
G1 X9.923 Y147.68 E77.54083
G1 X9.429 Y146.974 E77.65547
G1 X9.072 Y146.434 E77.74159
G1 X8.984 Y146.293 E77.76371
G1 X8.796 Y145.983 E77.81194
G1 X8.529 Y145.524 E77.88259
G1 X8.274 Y145.075 E77.95128
G1 X7.932 Y144.456 E78.04537
G1 X7.571 Y143.751 E78.15074
G1 X7.42 Y143.427 E78.1983
G1 X7.188 Y142.91 E78.27369
G1 X6.994 Y142.461 E78.33876
G1 X6.698 Y141.753 E78.44086
G1 X6.447 Y141.101 E78.5338
G1 X6.292 Y140.65 E78.59725
G1 X6.131 Y140.149 E78.66726
G1 X5.968 Y139.624 E78.74039
G1 X5.766 Y138.943 E78.8349
G1 X5.587 Y138.271 E78.92742
G1 X5.555 Y138.136 E78.94588
G1 X5.475 Y137.775 E78.99507
G1 X5.323 Y137.037 E79.09531
G1 X5.269 Y136.758 E79.13312
G1 X5.147 Y136.089 E79.22359
G1 X5.007 Y135.099 E79.35661
G1 X4.945 Y133.653 E79.54917
G1 X4.954 Y133.081 E79.62528
G1 X4.95 Y129.964 E80.03996
G1 X4.947 Y129.777 E80.06484
G1 X4.97 Y128.777 E80.19792
G1 X5.152 Y127.306 E80.39512
G1 X5.308 Y126.459 E80.5097
G1 X5.374 Y126.124 E80.55512
G1 X5.533 Y125.376 E80.65686
G1 X5.716 Y124.629 E80.75918
G1 X5.838 Y124.202 E80.81826
G1 X5.976 Y123.748 E80.88139
G1 X6.095 Y123.367 E80.93449
G1 X6.361 Y122.558 E81.04779
G1 X6.546 Y122.037 E81.12135
G1 X6.595 Y121.908 E81.1397
G1 X6.773 Y121.464 E81.20334
G1 X7.012 Y120.904 E81.28435
G1 X7.182 Y120.515 E81.34083
G1 X7.496 Y119.821 E81.44217
G1 X7.801 Y119.195 E81.53481
G1 X7.862 Y119.078 E81.55237
G1 X8.047 Y118.736 E81.6041
G1 X8.416 Y118.079 E81.70435
G1 X8.55 Y117.847 E81.73999
G1 X8.907 Y117.242 E81.83345
G1 X9.243 Y116.704 E81.91784
G1 X9.317 Y116.592 E81.93569
G1 X9.528 Y116.283 E81.98547
G1 X9.943 Y115.694 E82.08133
G1 X11.421 Y113.532 E82.42975
G1 X12.751 Y111.462 E82.75709
G1 X14.029 Y109.344 E83.0862
G1 X15.249 Y107.187 E83.41589
G1 X16.401 Y105.007 E83.74392
G1 X17.494 Y102.792 E84.07253
G1 X18.526 Y100.54 E84.4021
G1 X19.508 Y98.23 E84.73604
G1 X20.408 Y95.935 E85.064
G1 X21.233 Y93.635 E85.38909
G1 X22.003 Y91.281 E85.71859
G1 X22.717 Y88.878 E86.0521
G1 X23.348 Y86.505 E86.37878
G1 X23.911 Y84.119 E86.70493
G1 X24.424 Y81.642 E87.04147
G1 X24.845 Y79.252 E87.36433
G1 X25.212 Y76.78 E87.69681
G1 X25.504 Y74.329 E88.0252
G1 X25.726 Y71.88 E88.35235
G1 X25.881 Y69.395 E88.6836
G1 X25.965 Y66.925 E89.0124
G1 X25.978 Y64.452 E89.34141
G1 X25.922 Y61.976 E89.6709
G1 X25.796 Y59.502 E90.00047
G1 X25.601 Y57.047 E90.32812
G1 X25.332 Y54.563 E90.66052
G1 X24.999 Y52.125 E90.98789
G1 X24.597 Y49.695 E91.31557
G1 X24.12 Y47.25 E91.64698
G1 X23.58 Y44.84 E91.97556
G1 X22.977 Y42.467 E92.3013
G1 X22.287 Y40.041 E92.63686
G1 X21.543 Y37.682 E92.96594
G1 X20.646 Y35.111 E93.32821
G1 X20.338 Y34.269 E93.44749
G1 X20.032 Y33.317 E93.58052
G1 X19.803 Y32.344 E93.71351
G1 X19.711 Y31.802 E93.78665
G1 X19.643 Y31.343 E93.84838
G1 X19.582 Y30.875 E93.91117
G1 X19.508 Y29.878 E94.04418
G1 X19.514 Y28.878 E94.17722
G1 X19.58 Y28.051 E94.28759
G1 X19.63 Y27.607 E94.34704
G1 X19.682 Y27.201 E94.40149
G1 X19.861 Y26.218 E94.53442
G1 X20.117 Y25.251 E94.6675
G1 X20.435 Y24.347 E94.795
G1 X20.603 Y23.922 E94.8558
G1 X20.776 Y23.507 E94.91561
G1 X21.208 Y22.605 E95.04867
G1 X21.71 Y21.741 E95.18161
G1 X22.213 Y21.01 E95.29966
G1 X22.479 Y20.651 E95.35911
G1 X22.747 Y20.302 E95.41765
G1 X23.396 Y19.542 E95.55061
G0 F6000 X24.156 Y20.192
G1 F1200 X24.839 Y19.519 E95.67818
G1 X25.427 Y19.019 E95.78086
G1 X25.75 Y18.763 E95.83569
G1 X26.122 Y18.481 E95.8978
G1 X26.203 Y18.422 E95.91113
G1 X27.001 Y17.89 E96.03873
G1 X27.841 Y17.426 E96.1664
G1 X28.353 Y17.186 E96.24163
G1 X28.745 Y17.014 E96.29858
G1 X29.197 Y16.827 E96.36365
G1 X30.102 Y16.51 E96.49123
G1 X31.03 Y16.27 E96.61875
G1 X31.731 Y16.142 E96.71356
G1 X32.189 Y16.073 E96.77518
G1 X32.674 Y16.01 E96.84024
G1 X33.626 Y15.94 E96.96724
G1 X33.874 Y15.932 E97.00025
G1 X34.244 Y15.926 E97.04948
G1 X53.28 Y15.925 E99.58204
G1 X54.144 Y15.936 E99.697
G1 X55.046 Y15.985 E99.81718
G1 X55.207 Y16 E99.83869
G1 X55.814 Y16.073 E99.92003
G1 X56.147 Y16.122 E99.96481
G1 X57.089 Y16.301 E100.09237
G1 X58.013 Y16.557 E100.21993
G1 X58.664 Y16.79 E100.31192
G1 X59.078 Y16.952 E100.37107
G1 X59.776 Y17.252 E100.47214
G1 X60.152 Y17.429 E100.52743
G1 X62.559 Y18.591 E100.88303
G1 X64.828 Y19.609 E101.21388
G1 X67.157 Y20.575 E101.54933
G1 X69.52 Y21.479 E101.88593
G1 X71.836 Y22.287 E102.21226
G1 X74.221 Y23.047 E102.54528
G1 X76.64 Y23.743 E102.88016
G1 X79.08 Y24.37 E103.21533
G1 X81.501 Y24.921 E103.54566
G1 X83.959 Y25.407 E103.879
G1 X86.412 Y25.821 E104.20997
G1 X88.923 Y26.171 E104.54726
G1 X91.395 Y26.444 E104.87814
G1 X93.893 Y26.65 E105.2116
G1 X96.336 Y26.781 E105.53708
G1 X100.026 Y26.855 E106.0281
G1 X125.588 Y26.855 E109.42888
G1 X128.175 Y26.818 E109.7731
G1 X130.704 Y26.711 E110.10986
G1 X133.168 Y26.536 E110.43849
G1 X135.679 Y26.287 E110.7742
G1 X138.131 Y25.974 E111.10306
G1 X140.659 Y25.576 E111.44353
G1 X143.056 Y25.131 E111.76788
G1 X145.514 Y24.602 E112.10238
G1 X147.979 Y23.998 E112.44002
G1 X150.394 Y23.333 E112.77327
G1 X152.769 Y22.606 E113.10372
G1 X155.124 Y21.812 E113.43436
G1 X157.5 Y20.936 E113.77126
G1 X159.836 Y19.997 E114.10621
G1 X162.114 Y19.006 E114.43671
G1 X163.665 Y18.289 E114.66404
G1 X164.612 Y17.84 E114.80347
G1 X164.973 Y17.676 E114.85623
G1 X165.641 Y17.387 E114.95306
G1 X166.536 Y17.044 E115.08057
G1 X167.457 Y16.776 E115.20819
G1 X168.47 Y16.574 E115.34561
G1 X168.843 Y16.517 E115.39581
G1 X169.242 Y16.463 E115.44938
G1 X169.37 Y16.448 E115.46652
G1 X170.326 Y16.376 E115.59407
G1 X171.285 Y16.384 E115.72166
G1 X172.022 Y16.445 E115.82005
G1 X172.561 Y16.507 E115.89223
