;FLAVOR:Marlin
;TIME:14498
;Filament used: 48.3502m
;Layer height: 0.32
;MINX:2.827
;MINY:14.353
;MINZ:0.32
;MAXX:228.576
;MAXY:219.985
;MAXZ:5.12
;Generated with Cura_SteamEngine 4.13.1
M140 S50
M105
M190 S50
M104 S200
M105
M109 S200
M82 ;absolute extrusion mode
; Ender 3 Custom Start G-code
G92 E0 ; Reset Extruder
G28 ; Home all axes
G1 Z2.0 F3000 ; Move Z Axis up little to prevent scratching of Heat Bed
G1 X0.1 Y20 Z0.3 F5000.0 ; Move to start position
G1 X0.1 Y200.0 Z0.3 F1500.0 E15 ; Draw the first line
G1 X0.4 Y200.0 Z0.3 F5000.0 ; Move to side a little
G1 X0.4 Y20 Z0.3 F1500.0 E30 ; Draw the second line
G92 E0 ; Reset Extruder
G1 Z2.0 F3000 ; Move Z Axis up little to prevent scratching of Heat Bed
G1 X5 Y20 Z0.3 F5000.0 ; Move over to prevent blob squish
G92 E0
G92 E0
G1 F2700 E-5
;LAYER_COUNT:16
;LAYER:0
M107
G0 F6000 X14.339 Y19.463 Z0.32
;TYPE:SKIRT
G1 F2700 E0
G1 F1200 X15.208 Y18.868 E0.14012
G1 X15.858 Y18.462 E0.24207
G1 X16.273 Y18.211 E0.3066
G1 X16.981 Y17.796 E0.41578
G1 X17.949 Y17.284 E0.56147
G1 X18.803 Y16.881 E0.6871
G1 X19.112 Y16.742 E0.73218
G1 X19.804 Y16.436 E0.83284
G1 X20.841 Y16.031 E0.98095
G1 X21.682 Y15.747 E1.09905
G1 X22.145 Y15.597 E1.1638
G1 X22.807 Y15.393 E1.25596
G1 X23.821 Y15.127 E1.39543
G1 X24.696 Y14.937 E1.51455
G1 X25.209 Y14.834 E1.58416
G1 X25.85 Y14.714 E1.67092
G1 X26.906 Y14.563 E1.81284
G1 X27.851 Y14.47 E1.93917
G1 X28.288 Y14.433 E1.99752
G1 X28.967 Y14.384 E2.08809
G1 X30.055 Y14.353 E2.23289
G1 X30.964 Y14.368 E2.35384
G1 X31.454 Y14.384 E2.41907
G1 X32.136 Y14.414 E2.50989
G1 X33.182 Y14.504 E2.64957
G1 X34.052 Y14.617 E2.76628
G1 X34.537 Y14.687 E2.83148
G1 X35.21 Y14.793 E2.92212
G1 X36.27 Y15.008 E3.06601
G1 X37.213 Y15.243 E3.1953
G1 X37.602 Y15.347 E3.24888
G1 X38.278 Y15.535 E3.34222
G1 X39.294 Y15.865 E3.48434
G1 X40.151 Y16.186 E3.6061
G1 X40.938 Y16.493 E3.71848
G1 X41.066 Y16.535 E3.73641
G1 X42.429 Y17.065 E3.93097
G1 X44.729 Y17.886 E4.25587
G1 X47.119 Y18.664 E4.59026
G1 X49.477 Y19.358 E4.91727
G1 X51.89 Y19.995 E5.2493
G1 X54.29 Y20.558 E5.57726
G1 X56.695 Y21.047 E5.90377
G1 X59.144 Y21.476 E6.23455
G1 X61.615 Y21.837 E6.56678
G1 X64.06 Y22.123 E6.89429
G1 X66.515 Y22.341 E7.22218
G1 X68.961 Y22.488 E7.54819
G1 X71.469 Y22.568 E7.88202
G1 X73.944 Y22.576 E8.2113
G1 X76.417 Y22.515 E8.54041
G1 X78.866 Y22.385 E8.86669
G1 X81.334 Y22.185 E9.19611
G1 X83.813 Y21.911 E9.52792
G1 X86.252 Y21.574 E9.85549
G1 X88.715 Y21.16 E10.18777
G1 X91.141 Y20.682 E10.51673
G1 X93.453 Y20.158 E10.83212
G1 X96.729 Y19.296 E11.2828
G1 X96.908 Y19.257 E11.30717
G1 X100.165 Y18.35 E11.75697
G1 X101.039 Y18.119 E11.87724
G1 X101.446 Y18.019 E11.933
G1 X104.874 Y17.236 E12.40081
G1 X105.774 Y17.044 E12.52324
G1 X106.075 Y16.984 E12.56407
G1 X106.41 Y16.921 E12.60942
G1 X109.401 Y16.386 E13.01366
G1 X110.579 Y16.191 E13.17251
G1 X110.993 Y16.129 E13.22821
G1 X114.271 Y15.7 E13.66803
G1 X115.316 Y15.577 E13.80802
G1 X115.729 Y15.535 E13.86325
G1 X119.058 Y15.257 E14.30768
G1 X120.179 Y15.179 E14.45718
G1 X120.581 Y15.158 E14.51074
G1 X123.844 Y15.04 E14.94513
G1 X125.016 Y15.014 E15.10109
G1 X125.328 Y15.011 E15.1426
G1 X125.7 Y15.013 E15.1921
G1 X128.892 Y15.051 E15.61679
G1 X129.871 Y15.077 E15.74708
G1 X130.359 Y15.098 E15.81207
G1 X133.776 Y15.3 E16.26746
G1 X134.677 Y15.367 E16.38766
G1 X135.189 Y15.413 E16.45605
G1 X138.576 Y15.775 E16.90923
G1 X139.47 Y15.883 E17.02903
G1 X139.79 Y15.926 E17.07199
G1 X140.154 Y15.98 E17.12094
G1 X143.211 Y16.453 E17.53249
G1 X144.297 Y16.637 E17.67903
G1 X144.759 Y16.723 E17.74155
G1 X147.939 Y17.368 E18.17323
G1 X148.986 Y17.596 E18.31579
G1 X149.263 Y17.66 E18.35361
G1 X149.725 Y17.772 E18.41686
G1 X152.62 Y18.505 E18.81416
G1 X153.736 Y18.804 E18.96787
G1 X154.177 Y18.93 E19.02889
G1 X157.303 Y19.879 E19.46352
G1 X158.351 Y20.214 E19.6099
G1 X158.801 Y20.366 E19.67309
G1 X161.859 Y21.455 E20.10495
G1 X162.908 Y21.845 E20.25385
G1 X163.136 Y21.932 E20.28631
G1 X163.529 Y22.089 E20.34262
G1 X166.328 Y23.24 E20.74525
G1 X167.404 Y23.699 E20.90088
G1 X167.749 Y23.851 E20.95104
G1 X170.749 Y25.252 E21.39154
G1 X171.805 Y25.763 E21.54761
G1 X172.17 Y25.947 E21.602
G1 X175.072 Y27.472 E22.03814
G1 X176.062 Y28.01 E22.18804
G1 X176.466 Y28.238 E22.24976
G1 X179.236 Y29.865 E22.67715
G1 X180.197 Y30.447 E22.82662
G1 X180.478 Y30.622 E22.87066
G1 X180.807 Y30.834 E22.92273
G1 X183.295 Y32.459 E23.31808
G1 X184.299 Y33.135 E23.47911
G1 X184.809 Y33.493 E23.56201
G1 X187.273 Y35.273 E23.96641
G1 X188.189 Y35.954 E24.11827
G1 X188.437 Y36.143 E24.15975
G1 X188.693 Y36.345 E24.20313
G1 X191.256 Y38.39 E24.63936
G1 X191.952 Y38.962 E24.75921
G1 X192.169 Y39.144 E24.79689
G1 X192.513 Y39.441 E24.85735
G1 X194.757 Y41.411 E25.25462
G1 X195.615 Y42.185 E25.40835
G1 X195.935 Y42.482 E25.46643
G1 X196.074 Y42.614 E25.49194
G1 X198.392 Y44.853 E25.9207
G1 X199.09 Y45.546 E26.05155
G1 X199.319 Y45.78 E26.09511
G1 X199.552 Y46.024 E26.14
G1 X201.739 Y48.346 E26.56437
G1 X202.421 Y49.09 E26.69864
G1 X202.692 Y49.394 E26.75282
G1 X204.819 Y51.875 E27.18759
G1 X205.558 Y52.762 E27.34119
G1 X205.849 Y53.122 E27.40278
G1 X207.824 Y55.658 E27.83041
G1 X208.515 Y56.57 E27.98264
G1 X208.69 Y56.807 E28.02183
G1 X208.886 Y57.08 E28.06655
G1 X210.766 Y59.747 E28.50066
G1 X211.303 Y60.532 E28.62719
G1 X211.579 Y60.95 E28.69383
G1 X213.298 Y63.649 E29.11955
G1 X213.912 Y64.642 E29.27488
G1 X214.121 Y64.994 E29.32934
G1 X215.836 Y67.992 E29.78885
G1 X216.3 Y68.831 E29.9164
G1 X216.424 Y69.06 E29.95105
G1 X216.611 Y69.419 E30.0049
G1 X218.067 Y72.269 E30.43068
G1 X218.508 Y73.163 E30.5633
G1 X218.685 Y73.536 E30.61823
G1 X220.054 Y76.559 E31.05973
G1 X220.479 Y77.533 E31.20111
G1 X220.602 Y77.825 E31.24326
G1 X220.732 Y78.144 E31.28909
G1 X221.876 Y81.025 E31.70149
G1 X222.251 Y82.007 E31.84134
G1 X222.354 Y82.288 E31.88116
G1 X222.519 Y82.755 E31.94705
G1 X223.466 Y85.512 E32.33488
G1 X223.83 Y86.619 E32.48991
G1 X223.926 Y86.923 E32.53233
G1 X224.048 Y87.331 E32.58898
G1 X224.927 Y90.355 E33.00795
G1 X225.18 Y91.27 E33.13425
G1 X225.259 Y91.569 E33.17539
G1 X225.343 Y91.909 E33.22199
G1 X226.106 Y95.086 E33.65667
G1 X226.316 Y96.018 E33.78378
G1 X226.401 Y96.42 E33.83844
G1 X227.057 Y99.851 E34.30317
G1 X227.209 Y100.71 E34.41923
G1 X227.257 Y101.003 E34.45873
G1 X227.319 Y101.415 E34.51416
G1 X227.776 Y104.621 E34.945
G1 X227.891 Y105.52 E35.06558
G1 X227.923 Y105.797 E35.10267
G1 X227.968 Y106.231 E35.16072
G1 X228.269 Y109.423 E35.58727
G1 X228.343 Y110.34 E35.70967
G1 X228.366 Y110.679 E35.75487
G1 X228.385 Y111.034 E35.80217
G1 X228.536 Y114.242 E36.22943
G1 X228.568 Y115.239 E36.36214
G1 X228.575 Y115.661 E36.4183
G1 X228.576 Y118.919 E36.85174
G1 X228.562 Y120.014 E36.99743
G1 X228.555 Y120.293 E37.03456
G1 X228.537 Y120.756 E37.09621
G1 X228.388 Y123.891 E37.51376
G1 X228.329 Y124.857 E37.64252
G1 X228.308 Y125.146 E37.68107
G1 X228.269 Y125.595 E37.74103
G1 X227.968 Y128.761 E38.16413
G1 X227.868 Y129.674 E38.28633
G1 X227.795 Y130.246 E38.36304
G1 X227.321 Y133.566 E38.80922
G1 X227.176 Y134.492 E38.93391
G1 X227.104 Y134.903 E38.98942
G1 X226.447 Y138.339 E39.45483
G1 X226.259 Y139.251 E39.57872
G1 X226.171 Y139.649 E39.63295
G1 X226.129 Y139.83 E39.65767
G1 X225.354 Y143.038 E40.09674
G1 X225.13 Y143.916 E40.21729
G1 X225.054 Y144.201 E40.25653
G1 X224.943 Y144.592 E40.31061
G1 X224.057 Y147.632 E40.73188
G1 X223.773 Y148.561 E40.86112
G1 X223.681 Y148.849 E40.90134
G1 X223.53 Y149.301 E40.96474
G1 X222.515 Y152.251 E41.37979
G1 X222.182 Y153.178 E41.51084
G1 X222.01 Y153.635 E41.5758
G1 X220.83 Y156.608 E42.00134
G1 X220.762 Y156.777 E42.02558
G1 X220.388 Y157.68 E42.15561
G1 X220.178 Y158.164 E42.2258
G1 X218.853 Y161.094 E42.65362
G1 X218.406 Y162.05 E42.79402
G1 X218.261 Y162.348 E42.83811
G1 X218.104 Y162.66 E42.88458
G1 X216.731 Y165.347 E43.28602
G1 X216.168 Y166.413 E43.44641
G1 X216.026 Y166.674 E43.48594
G1 X215.872 Y166.948 E43.52776
G1 X214.263 Y169.758 E43.95855
G1 X213.651 Y170.789 E44.11806
G1 X213.461 Y171.096 E44.16609
G1 X211.795 Y173.713 E44.57882
G1 X211.167 Y174.672 E44.73133
G1 X210.928 Y175.024 E44.78794
G1 X208.91 Y177.884 E45.25361
G1 X208.392 Y178.597 E45.37086
G1 X208.222 Y178.826 E45.40881
G1 X207.966 Y179.161 E45.4649
G1 X205.982 Y181.707 E45.89432
G1 X205.434 Y182.392 E46.01103
G1 X205.241 Y182.627 E46.05148
G1 X204.936 Y182.988 E46.11436
G1 X202.872 Y185.394 E46.5361
G1 X202.225 Y186.127 E46.66617
G1 X202.052 Y186.32 E46.70065
G1 X201.824 Y186.566 E46.74528
G1 X199.574 Y188.952 E47.18159
G1 X198.934 Y189.612 E47.3039
G1 X198.712 Y189.835 E47.34576
G1 X198.434 Y190.107 E47.39751
G1 X196.12 Y192.339 E47.82524
G1 X195.429 Y192.987 E47.95127
G1 X195.086 Y193.299 E48.01295
G1 X192.649 Y195.439 E48.44444
G1 X191.795 Y196.169 E48.59391
G1 X191.579 Y196.35 E48.6314
G1 X191.274 Y196.597 E48.68361
G1 X188.741 Y198.615 E49.11447
G1 X188.035 Y199.163 E49.23338
G1 X187.791 Y199.348 E49.27411
G1 X187.446 Y199.602 E49.33111
G1 X184.989 Y201.377 E49.73437
G1 X184.09 Y202.008 E49.88049
G1 X183.882 Y202.151 E49.91407
G1 X183.486 Y202.416 E49.97747
G1 X180.805 Y204.166 E50.40341
G1 X180.029 Y204.658 E50.52565
G1 X179.759 Y204.825 E50.56789
G1 X179.49 Y204.985 E50.60953
G1 X176.65 Y206.654 E51.04778
G1 X175.825 Y207.123 E51.17403
G1 X175.471 Y207.316 E51.22767
G1 X172.348 Y208.959 E51.69715
G1 X171.56 Y209.359 E51.81472
G1 X171.305 Y209.485 E51.85256
G1 X171.001 Y209.63 E51.89737
G1 X167.997 Y211.033 E52.33846
G1 X167.199 Y211.392 E52.45488
G1 X166.905 Y211.519 E52.49748
G1 X166.51 Y211.685 E52.55449
G1 X163.585 Y212.885 E52.97511
G1 X162.671 Y213.246 E53.10585
G1 X162.248 Y213.405 E53.16597
G1 X159.198 Y214.493 E53.59678
G1 X158.12 Y214.862 E53.74837
G1 X157.835 Y214.955 E53.78826
G1 X157.492 Y215.063 E53.8361
G1 X154.373 Y216.01 E54.26976
G1 X153.5 Y216.262 E54.39064
G1 X152.973 Y216.404 E54.46326
G1 X149.748 Y217.221 E54.90587
G1 X148.801 Y217.447 E55.03539
G1 X148.518 Y217.511 E55.07399
G1 X148.121 Y217.595 E55.12798
G1 X145.013 Y218.225 E55.54988
G1 X143.978 Y218.42 E55.69
G1 X143.582 Y218.488 E55.74345
G1 X140.355 Y218.989 E56.17792
G1 X139.265 Y219.143 E56.32437
G1 X139.001 Y219.178 E56.3598
G1 X138.65 Y219.218 E56.4068
G1 X135.33 Y219.571 E56.85099
G1 X134.46 Y219.651 E56.96722
G1 X134.185 Y219.674 E57.00393
G1 X133.838 Y219.697 E57.0502
G1 X130.691 Y219.883 E57.46961
G1 X129.644 Y219.931 E57.60905
G1 X129.353 Y219.941 E57.64779
G1 X128.95 Y219.949 E57.70141
G1 X125.752 Y219.985 E58.1269
G1 X124.772 Y219.983 E58.25728
G1 X124.462 Y219.978 E58.29853
G1 X124.096 Y219.968 E58.34724
G1 X120.828 Y219.851 E58.7823
G1 X119.953 Y219.807 E58.89886
G1 X119.441 Y219.773 E58.96712
G1 X116.235 Y219.508 E59.39511
G1 X115.115 Y219.401 E59.54479
G1 X114.797 Y219.366 E59.58735
G1 X114.442 Y219.322 E59.63494
G1 X111.211 Y218.898 E60.06848
G1 X110.353 Y218.774 E60.18382
G1 X110.06 Y218.728 E60.22327
G1 X109.635 Y218.656 E60.28062
G1 X106.535 Y218.1 E60.69963
G1 X105.54 Y217.908 E60.83445
G1 X105.217 Y217.841 E60.87833
G1 X104.873 Y217.765 E60.9252
G1 X101.732 Y217.047 E61.35386
G1 X100.851 Y216.833 E61.47448
G1 X100.562 Y216.759 E61.51417
G1 X100.174 Y216.654 E61.56764
G1 X94.614 Y215.104 E62.33556
G1 X92.194 Y214.503 E62.66729
G1 X89.825 Y213.988 E62.98983
G1 X87.357 Y213.521 E63.324
G1 X84.926 Y213.134 E63.65149
G1 X82.466 Y212.812 E63.98156
G1 X80.024 Y212.563 E64.30813
G1 X77.54 Y212.38 E64.6395
G1 X75.069 Y212.268 E64.96858
G1 X72.599 Y212.226 E65.29724
G1 X70.121 Y212.255 E65.62694
G1 X67.65 Y212.353 E65.95594
G1 X65.183 Y212.521 E66.28491
G1 X62.709 Y212.76 E66.61559
G1 X60.283 Y213.063 E66.94085
G1 X57.792 Y213.446 E67.27615
G1 X55.404 Y213.884 E67.59915
G1 X52.96 Y214.403 E67.93155
G1 X50.58 Y214.98 E68.25736
G1 X48.173 Y215.635 E68.58923
G1 X45.777 Y216.361 E68.92231
G1 X43.467 Y217.133 E69.24634
G1 X41.579 Y217.831 E69.51414
G1 X41.315 Y217.917 E69.55108
G1 X40.261 Y218.309 E69.70069
G1 X39.259 Y218.635 E69.84087
G1 X38.538 Y218.836 E69.94045
G1 X38.007 Y218.976 E70.01351
G1 X37.276 Y219.158 E70.11373
G1 X36.217 Y219.373 E70.2575
G1 X35.275 Y219.521 E70.38436
G1 X34.796 Y219.588 E70.4487
G1 X34.141 Y219.672 E70.53656
G1 X33.077 Y219.763 E70.67863
G1 X32.226 Y219.798 E70.79194
G1 X31.686 Y219.813 E70.86381
G1 X31.026 Y219.822 E70.95163
G1 X29.975 Y219.792 E71.09151
G1 X29.043 Y219.725 E71.21582
G1 X28.571 Y219.683 E71.27887
G1 X27.92 Y219.618 E71.36591
G1 X26.863 Y219.467 E71.50796
G1 X26.056 Y219.316 E71.61719
G1 X25.648 Y219.234 E71.67255
G1 X24.791 Y219.048 E71.78922
G1 X23.77 Y218.78 E71.92966
G1 X22.906 Y218.512 E72.05001
G1 X22.432 Y218.356 E72.1164
G1 X21.801 Y218.141 E72.20508
G1 X20.803 Y217.752 E72.34759
G1 X20.039 Y217.416 E72.45863
G1 X19.522 Y217.18 E72.53424
G1 X18.947 Y216.908 E72.61886
G1 X17.985 Y216.4 E72.7636
G1 X17.178 Y215.927 E72.88804
G1 X16.767 Y215.677 E72.95204
G1 X16.195 Y215.32 E73.04175
G1 X15.333 Y214.731 E73.18064
G1 X14.644 Y214.215 E73.29517
G1 X14.216 Y213.884 E73.36715
G1 X13.697 Y213.472 E73.45531
G1 X12.904 Y212.787 E73.59472
G1 X12.331 Y212.248 E73.69938
G1 X11.92 Y211.848 E73.77568
G1 X11.385 Y211.313 E73.87634
G1 X10.658 Y210.52 E74.01947
G1 X10.109 Y209.866 E74.13307
G1 X9.793 Y209.48 E74.19943
G1 X9.35 Y208.921 E74.29433
G1 X8.73 Y208.065 E74.43494
G1 X8.176 Y207.227 E74.56859
G1 X7.939 Y206.855 E74.62727
G1 X7.595 Y206.3 E74.71414
G1 X7.087 Y205.399 E74.85175
G1 X6.749 Y204.737 E74.95064
G1 X6.476 Y204.183 E75.03281
G1 X6.171 Y203.541 E75.12737
G1 X5.75 Y202.544 E75.27135
G1 X5.419 Y201.652 E75.39793
G1 X5.286 Y201.274 E75.45124
G1 X5.051 Y200.582 E75.54847
G1 X4.756 Y199.578 E75.68769
G1 X4.538 Y198.697 E75.80843
G1 X4.436 Y198.25 E75.86943
G1 X4.289 Y197.577 E75.96108
G1 X4.104 Y196.51 E76.10515
G1 X3.985 Y195.58 E76.22989
G1 X3.937 Y195.152 E76.28718
G1 X3.867 Y194.456 E76.38025
G1 X3.805 Y193.391 E76.52218
G1 X3.793 Y192.466 E76.64525
G1 X3.795 Y191.984 E76.70938
G1 X3.806 Y191.282 E76.80278
G1 X3.865 Y190.245 E76.94097
G1 X3.934 Y189.549 E77.03402
G1 X3.995 Y189.012 E77.10592
G1 X4.099 Y188.197 E77.21523
G1 X4.279 Y187.153 E77.35617
G1 X4.48 Y186.232 E77.48158
G1 X4.59 Y185.767 E77.54516
G1 X4.754 Y185.107 E77.63563
G1 X5.048 Y184.105 E77.77456
G1 X5.342 Y183.243 E77.89573
G1 X5.515 Y182.761 E77.96386
G1 X5.732 Y182.177 E78.04674
G1 X6.154 Y181.176 E78.19127
G1 X6.559 Y180.324 E78.31677
G1 X6.76 Y179.916 E78.37728
G1 X7.068 Y179.311 E78.4676
G1 X7.594 Y178.379 E78.60998
G1 X7.999 Y177.728 E78.71198
G1 X8.347 Y177.188 E78.79745
G1 X9.255 Y175.82 E79.01589
G1 X10.62 Y173.696 E79.35179
G1 X11.91 Y171.561 E79.68366
G1 X13.128 Y169.406 E80.01298
G1 X14.285 Y167.22 E80.34203
G1 X15.384 Y164.994 E80.67231
G1 X16.412 Y162.752 E81.00045
G1 X17.372 Y160.491 E81.32724
G1 X18.285 Y158.164 E81.6598
G1 X19.12 Y155.839 E81.98847
G1 X19.893 Y153.484 E82.31822
G1 X20.589 Y151.137 E82.64391
G1 X21.236 Y148.711 E82.97795
G1 X21.805 Y146.31 E83.30622
G1 X22.304 Y143.881 E83.63613
G1 X22.731 Y141.474 E83.96136
G1 X23.097 Y139.012 E84.2925
G1 X23.392 Y136.545 E84.62305
G1 X23.615 Y134.084 E84.95181
G1 X23.769 Y131.616 E85.28079
G1 X23.853 Y129.144 E85.60985
G1 X23.868 Y126.667 E85.9394
G1 X23.811 Y124.146 E86.27488
G1 X23.706 Y121.94 E86.5687
G1 X23.695 Y121.574 E86.61742
G1 X23.618 Y118.291 E87.05431
G1 X23.609 Y117.412 E87.17126
G1 X23.61 Y117.072 E87.21649
G1 X23.615 Y116.754 E87.2588
G1 X23.688 Y113.656 E87.67108
G1 X23.77 Y111.478 E87.96105
G1 X23.829 Y108.979 E88.29361
G1 X23.819 Y106.469 E88.62754
G1 X23.738 Y104.022 E88.95327
G1 X23.587 Y101.538 E89.28435
G1 X23.365 Y99.067 E89.61442
G1 X23.078 Y96.631 E89.94075
G1 X22.713 Y94.154 E90.27385
G1 X22.286 Y91.725 E90.60196
G1 X21.792 Y89.316 E90.92912
G1 X21.23 Y86.92 E91.25654
G1 X20.586 Y84.492 E91.59073
G1 X19.889 Y82.13 E91.91837
G1 X19.128 Y79.802 E92.24422
G1 X18.286 Y77.453 E92.5762
G1 X17.382 Y75.136 E92.90708
G1 X16.42 Y72.865 E93.23521
G1 X15.386 Y70.601 E93.56634
G1 X14.309 Y68.409 E93.89126
G1 X13.141 Y66.195 E94.22429
G1 X11.923 Y64.037 E94.55397
G1 X10.658 Y61.935 E94.88035
G1 X9.312 Y59.836 E95.21209
G1 X7.952 Y57.846 E95.53276
G1 X7.243 Y56.774 E95.70375
G1 X7.008 Y56.406 E95.76184
G1 X6.644 Y55.822 E95.85339
